; generated by PrusaSlicer 2.4.2+win64 on 2022-09-02 at 14:03:16 UTC

; 

; external perimeters extrusion width = 0.45mm
; perimeters extrusion width = 0.45mm
; infill extrusion width = 0.45mm
; solid infill extrusion width = 0.45mm
; top infill extrusion width = 0.40mm
; first layer extrusion width = 0.42mm

M73 P0 R13
M73 Q0 S13
M201 X1000 Y1000 Z200 E5000 ; sets maximum accelerations, mm/sec^2
M203 X200 Y200 Z12 E120 ; sets maximum feedrates, mm / sec
M204 P1250 R1250 T1250 ; sets acceleration (P, T) and retract acceleration (R), mm/sec^2
M205 X8.00 Y8.00 Z0.40 E4.50 ; sets the jerk limits, mm/sec
M205 S0 T0 ; sets the minimum extruding and travel feed rate, mm/sec
M107
;TYPE:Custom
M862.3 P "MK3S" ; printer model check
M862.1 P0.4 ; nozzle diameter check
M115 U3.10.1 ; tell printer latest fw version
G90 ; use absolute coordinates
M83 ; extruder relative mode
M104 S215 ; set extruder temp
M140 S60 ; set bed temp
M190 S60 ; wait for bed temp
M109 S215 ; wait for extruder temp
G28 W ; home all without mesh bed level
G80 ; mesh bed leveling
G1 Z0.2 F720
G1 Y-3 F1000 ; go outside print area
G92 E0
G1 X60 E9 F1000 ; intro line
G1 X100 E12.5 F1000 ; intro line
G92 E0
M221 S95

; Don't change E values below. Excessive value can damage the printer.
M907 E430 ; set extruder motor current
G21 ; set units to millimeters
G90 ; use absolute coordinates
M83 ; use relative distances for extrusion
M900 K0.05 ; Filament gcode LA 1.5
M900 K30 ; Filament gcode LA 1.0
M107
;LAYER_CHANGE
;Z:0.2
;HEIGHT:0.2
;BEFORE_LAYER_CHANGE
G92 E0.0
;0.2


G1 E-.8 F2100
G1 Z.4 F720
;AFTER_LAYER_CHANGE
;0.2
G1 X118.641 Y99.948 F10800
G1 Z.2 F720
G1 E.8 F2100
M204 S800
;TYPE:Skirt/Brim
;WIDTH:0.42
G1 F988
G1 X119.72 Y98.828 E.04878
G1 X120.645 Y98.143 E.03607
G1 X122.286 Y97.342 E.05727
G1 X123.794 Y96.965 E.04874
G1 X125.625 Y96.898 E.05746
G1 X127.183 Y97.171 E.04959
G1 X128.873 Y97.853 E.05713
M73 Q1 S13
G1 X130.166 Y98.723 E.04887
G1 X130.997 Y99.51 E.0359
G1 X132.076 Y100.993 E.05751
G1 X132.708 Y102.411 E.04867
M73 P1 R13
G1 X132.998 Y103.525 E.03608
G1 X133.125 Y105.349 E.05733
G1 X132.907 Y106.903 E.0492
G1 X132.284 Y108.615 E.05713
G1 X131.46 Y109.938 E.04887
G1 X130.189 Y111.259 E.05746
G1 X128.879 Y112.144 E.04959
G1 X127.847 Y112.614 E.03555
G1 X126.072 Y113.056 E.05733
G1 X124.504 Y113.111 E.0492
G1 X122.71 Y112.795 E.05713
G1 X121.641 Y112.397 E.03575
G1 X120.282 Y111.613 E.0492
G1 X118.923 Y110.389 E.05733
G1 X118.01 Y109.134 E.04867
G1 X117.261 Y107.458 E.05755
G1 X116.992 Y106.349 E.03579
G1 X116.882 Y104.782 E.04927
G1 X117.135 Y102.981 E.05701
G1 X117.667 Y101.512 E.049
G1 X118.609 Y99.999 E.05587
M204 S1000
G1 X118.928 Y100.198 F10800
M204 S800
G1 F988
G1 X119.953 Y99.125 E.04653
G1 X120.833 Y98.47 E.0344
G1 X122.428 Y97.692 E.05562
G1 X123.834 Y97.34 E.04546
G1 X125.612 Y97.274 E.0558
G1 X127.062 Y97.528 E.04612
G1 X128.708 Y98.192 E.05567
G1 X129.914 Y99.004 E.04558
G1 X130.709 Y99.753 E.03423
G1 X131.756 Y101.193 E.05585
G1 X132.346 Y102.516 E.0454
G1 X132.624 Y103.577 E.03441
G1 X132.748 Y105.349 E.05568
G1 X132.544 Y106.799 E.04591
G1 X131.939 Y108.462 E.05551
G1 X131.17 Y109.696 E.04558
G1 X129.937 Y110.978 E.0558
G1 X128.713 Y111.806 E.04629
G1 X127.73 Y112.255 E.0339
G1 X126.007 Y112.685 E.05568
G1 X124.544 Y112.736 E.04591
G1 X122.8 Y112.429 E.05551
G1 X121.783 Y112.048 E.03408
G1 X120.515 Y111.315 E.04591
G1 X119.195 Y110.127 E.05568
G1 X118.343 Y108.956 E.0454
G1 X117.615 Y107.329 E.0559
G1 X117.361 Y106.27 E.03413
G1 X117.259 Y104.808 E.04597
G1 X117.503 Y103.061 E.0553
G1 X118 Y101.688 E.04579
G1 X118.896 Y100.249 E.05315
M204 S1000
G1 X119.216 Y100.448 F10800
M204 S800
G1 F988
G1 X119.251 Y100.392 E.00208
G1 X120.186 Y99.422 E.04225
G1 X121.022 Y98.796 E.03273
G1 X122.569 Y98.041 E.05398
G1 X123.874 Y97.715 E.04219
G1 X125.6 Y97.651 E.05413
G1 X126.945 Y97.887 E.04283
G1 X128.544 Y98.531 E.05404
G1 X129.663 Y99.284 E.04229
G1 X130.42 Y99.995 E.03257
G1 X131.437 Y101.393 E.05419
G1 X131.984 Y102.62 E.04213
G1 X132.251 Y103.63 E.03273
G1 X132.371 Y105.349 E.05403
G1 X132.182 Y106.695 E.04262
G1 X131.594 Y108.31 E.05388
G1 X130.881 Y109.454 E.04229
G1 X129.684 Y110.698 E.05413
G1 X128.839 Y111.298 E.03248
G1 X127.614 Y111.897 E.04277
G1 X125.942 Y112.314 E.05403
G1 X124.583 Y112.361 E.04262
G1 X122.891 Y112.063 E.05388
G1 X121.924 Y111.698 E.0324
G1 X120.747 Y111.018 E.04262
G1 X119.466 Y109.865 E.05403
G1 X118.675 Y108.778 E.04214
G1 X117.969 Y107.199 E.05425
G1 X117.73 Y106.192 E.03246
G1 X117.635 Y104.834 E.04267
M73 Q2 S13
G1 X117.872 Y103.139 E.05366
G1 X118.334 Y101.864 E.04251
G1 X119.184 Y100.499 E.05044
M204 S1000
; printing object shape_001_v11.stl id:0 copy 0
;WIPE_START
G1 F8640
M73 P2 R13
G1 X119.251 Y100.392 E-.02914
G1 X120.186 Y99.422 E-.31111
G1 X121.022 Y98.796 E-.24103
G1 X121.717 Y98.457 E-.17872
;WIPE_END
G1 E-.04 F2100
G1 Z.6 F720
G1 X121.759 Y102.56 F10800
G1 Z.2 F720
G1 E.8 F2100
M204 S800
;TYPE:External perimeter
G1 F988
G1 X122.193 Y102.071 E.02049
G1 X122.699 Y101.658 E.02049
G1 X123.265 Y101.331 E.02049
G1 X123.876 Y101.099 E.02049
G1 X124.517 Y100.968 E.02049
G1 X125.17 Y100.942 E.02049
G1 X125.818 Y101.021 E.02049
G1 X126.446 Y101.203 E.02049
G1 X127.037 Y101.483 E.02049
G1 X127.575 Y101.854 E.02049
G1 X128.046 Y102.307 E.02049
G1 X128.439 Y102.829 E.02049
G1 X128.742 Y103.408 E.02049
G1 X128.949 Y104.028 E.02049
G1 X129.054 Y104.673 E.02049
G1 X129.054 Y105.327 E.02049
G1 X128.949 Y105.972 E.02049
G1 X128.742 Y106.592 E.02049
G1 X128.439 Y107.171 E.02049
G1 X128.046 Y107.693 E.02049
G1 X127.575 Y108.146 E.02049
G1 X127.037 Y108.517 E.02049
G1 X126.446 Y108.797 E.02049
G1 X125.818 Y108.979 E.02049
G1 X125.17 Y109.058 E.02049
G1 X124.517 Y109.032 E.02049
G1 X123.876 Y108.901 E.02049
G1 X123.265 Y108.669 E.02049
G1 X122.699 Y108.342 E.02049
G1 X122.193 Y107.929 E.02049
G1 X121.759 Y107.44 E.02049
G1 X121.41 Y106.887 E.02049
G1 X121.154 Y106.286 E.02049
G1 X120.997 Y105.651 E.02049
G1 X120.945 Y105 E.02049
G1 X120.997 Y104.349 E.02049
G1 X121.154 Y103.714 E.02049
G1 X121.41 Y103.113 E.02049
G1 X121.727 Y102.611 E.01861
M204 S1000
G1 X121.602 Y102.192 F10800
G1 X121.491 Y102.05
M204 S800
G1 F988
G1 X121.935 Y101.59 E.02007
G1 X122.44 Y101.196 E.02007
G1 X122.994 Y100.875 E.02007
G1 X123.588 Y100.636 E.02007
G1 X124.209 Y100.481 E.02007
G1 X124.846 Y100.414 E.02007
G1 X125.486 Y100.436 E.02007
G1 X126.116 Y100.547 E.02007
G1 X126.725 Y100.745 E.02007
G1 X127.301 Y101.026 E.02007
G1 X127.831 Y101.384 E.02007
G1 X128.307 Y101.812 E.02007
G1 X128.719 Y102.303 E.02007
G1 X129.058 Y102.846 E.02007
G1 X129.318 Y103.43 E.02007
G1 X129.495 Y104.046 E.02007
G1 X129.584 Y104.68 E.02007
G1 X129.584 Y105.32 E.02007
G1 X129.495 Y105.954 E.02007
G1 X129.318 Y106.57 E.02007
G1 X129.058 Y107.154 E.02007
G1 X128.719 Y107.697 E.02007
G1 X128.307 Y108.188 E.02007
G1 X127.831 Y108.616 E.02007
G1 X127.301 Y108.974 E.02007
G1 X126.725 Y109.255 E.02007
G1 X126.116 Y109.453 E.02007
G1 X125.486 Y109.564 E.02007
G1 X124.846 Y109.586 E.02007
G1 X124.209 Y109.519 E.02007
G1 X123.588 Y109.364 E.02007
G1 X122.994 Y109.125 E.02007
G1 X122.44 Y108.804 E.02007
G1 X121.935 Y108.41 E.02007
G1 X121.491 Y107.95 E.02007
G1 X121.114 Y107.432 E.02007
G1 X120.814 Y106.867 E.02007
G1 X120.595 Y106.265 E.02007
G1 X120.462 Y105.639 E.02007
G1 X120.417 Y105 E.02007
G1 X120.462 Y104.361 E.02007
G1 X120.595 Y103.735 E.02007
G1 X120.814 Y103.133 E.02007
G1 X121.114 Y102.568 E.02007
G1 X121.455 Y102.099 E.01819
M204 S1000
G1 X121.885 Y102.12 F10800
G1 X121.664 Y102.266
M204 S800
;TYPE:Gap fill
;WIDTH:0.204463
G1 F988
G1 X121.698 Y102.224 E.00073
;WIDTH:0.204461
G1 X122.009 Y101.888 E.00615
;WIDTH:0.185212
G1 X122.017 Y101.879 E.00014
;WIDTH:0.200977
G1 X122.115 Y101.789 E.00175
;WIDTH:0.200977
G1 X122.545 Y101.445 E.00724
;WIDTH:0.189844
G1 X122.555 Y101.438 E.00014
;WIDTH:0.195499
G1 X122.588 Y101.416 E.00051
;WIDTH:0.195499
G1 X123.111 Y101.114 E.00765
;WIDTH:0.195498
G1 X123.147 Y101.096 E.00051
;WIDTH:0.189844
G1 X123.158 Y101.092 E.00014
;WIDTH:0.200976
G1 X123.671 Y100.891 E.00724
;WIDTH:0.200977
G1 X123.798 Y100.851 E.00175
;WIDTH:0.185213
G1 X123.809 Y100.848 E.00014
;WIDTH:0.204462
G1 X124.256 Y100.747 E.00615
;WIDTH:0.204462
G1 X124.48 Y100.712 E.00304
;WIDTH:0.182592
G1 X124.491 Y100.711 E.00013
;WIDTH:0.205955
G1 X124.855 Y100.684 E.00495
;WIDTH:0.205956
G1 X125.155 Y100.684 E.00406
;WIDTH:0.183428
G1 X125.174 Y100.683 E.00023
;WIDTH:0.182033
G1 X125.186 Y100.684 E.00013
;WIDTH:0.205457
G1 X125.458 Y100.705 E.00369
;WIDTH:0.205456
G1 X125.865 Y100.766 E.00556
;WIDTH:0.183653
G1 X125.876 Y100.768 E.00013
;WIDTH:0.202969
G1 X126.051 Y100.809 E.00239
;WIDTH:0.202969
G1 X126.533 Y100.957 E.00671
;WIDTH:0.18728
G1 X126.544 Y100.961 E.00014
;WIDTH:0.198488
G1 X126.625 Y100.993 E.00113
;WIDTH:0.19849
G1 X127.163 Y101.252 E.00773
;WIDTH:0.192253
G1 X127.169 Y101.254 E.00007
;WIDTH:0.192251
G1 X127.174 Y101.258 E.00007
;WIDTH:0.198488
G1 X127.667 Y101.594 E.00772
;WIDTH:0.198487
G1 X127.735 Y101.648 E.00113
;WIDTH:0.187278
G1 X127.744 Y101.656 E.00014
;WIDTH:0.202969
G1 X128.113 Y101.999 E.00671
;WIDTH:0.202968
G1 X128.236 Y102.131 E.00239
;WIDTH:0.183653
G1 X128.244 Y102.139 E.00013
;WIDTH:0.205459
G1 X128.5 Y102.462 E.00556
;WIDTH:0.205457
G1 X128.654 Y102.686 E.00369
;WIDTH:0.182034
G1 X128.66 Y102.696 E.00013
;WIDTH:0.205955
G1 X128.819 Y102.973 E.00433
;WIDTH:0.205954
G1 X128.978 Y103.302 E.00495
;WIDTH:0.182592
G1 X128.983 Y103.312 E.00013
;WIDTH:0.204461
G1 X129.065 Y103.523 E.00304
;WIDTH:0.204461
G1 X129.2 Y103.96 E.00615
;WIDTH:0.185213
G1 X129.203 Y103.971 E.00014
;WIDTH:0.200976
G1 X129.232 Y104.102 E.00175
;WIDTH:0.200977
G1 X129.315 Y104.646 E.00724
;WIDTH:0.189842
G1 X129.316 Y104.658 E.00014
;WIDTH:0.1955
G1 X129.319 Y104.698 E.00051
G1 X129.319 Y105.302 E.00765
;WIDTH:0.195498
G1 X129.316 Y105.342 E.00051
;WIDTH:0.189843
G1 X129.315 Y105.354 E.00014
;WIDTH:0.200977
G1 X129.232 Y105.898 E.00724
;WIDTH:0.200977
G1 X129.203 Y106.029 E.00175
;WIDTH:0.185214
G1 X129.2 Y106.04 E.00014
;WIDTH:0.204462
G1 X129.065 Y106.477 E.00615
;WIDTH:0.204462
G1 X128.983 Y106.688 E.00304
;WIDTH:0.182592
G1 X128.978 Y106.698 E.00013
;WIDTH:0.205956
G1 X128.819 Y107.027 E.00495
;WIDTH:0.205955
G1 X128.66 Y107.304 E.00433
;WIDTH:0.182035
G1 X128.654 Y107.314 E.00013
;WIDTH:0.205457
G1 X128.5 Y107.538 E.00369
;WIDTH:0.205457
G1 X128.244 Y107.861 E.00556
;WIDTH:0.183652
G1 X128.236 Y107.869 E.00013
;WIDTH:0.20297
G1 X128.113 Y108.001 E.00239
;WIDTH:0.20297
G1 X127.744 Y108.344 E.00671
;WIDTH:0.187278
G1 X127.735 Y108.352 E.00014
;WIDTH:0.198488
G1 X127.667 Y108.406 E.00113
;WIDTH:0.198487
G1 X127.456 Y108.55 E.0033
;WIDTH:0.195748
G1 X127.174 Y108.742 E.00435
;WIDTH:0.192252
G1 X127.169 Y108.746 E.00007
;WIDTH:0.192251
G1 X127.163 Y108.748 E.00007
;WIDTH:0.198489
G1 X126.625 Y109.007 E.00773
;WIDTH:0.198488
G1 X126.544 Y109.039 E.00113
;WIDTH:0.187279
G1 X126.533 Y109.043 E.00014
;WIDTH:0.20297
G1 X126.051 Y109.191 E.00671
;WIDTH:0.202969
G1 X125.876 Y109.232 E.00239
;WIDTH:0.183654
G1 X125.865 Y109.234 E.00013
;WIDTH:0.205458
G1 X125.458 Y109.295 E.00556
;WIDTH:0.205456
G1 X125.186 Y109.316 E.00369
;WIDTH:0.182032
G1 X125.174 Y109.317 E.00013
;WIDTH:0.205956
G1 X124.855 Y109.316 E.00433
;WIDTH:0.205954
G1 X124.491 Y109.289 E.00495
;WIDTH:0.182593
G1 X124.48 Y109.288 E.00013
;WIDTH:0.204462
G1 X124.256 Y109.253 E.00304
;WIDTH:0.204464
G1 X123.809 Y109.152 E.00615
;WIDTH:0.185215
G1 X123.798 Y109.149 E.00014
;WIDTH:0.200978
G1 X123.671 Y109.109 E.00175
;WIDTH:0.200979
G1 X123.158 Y108.908 E.00724
;WIDTH:0.189846
G1 X123.147 Y108.904 E.00014
;WIDTH:0.195499
G1 X123.111 Y108.886 E.00051
;WIDTH:0.1955
G1 X122.588 Y108.584 E.00765
;WIDTH:0.195499
G1 X122.555 Y108.562 E.00051
;WIDTH:0.189848
G1 X122.545 Y108.555 E.00014
;WIDTH:0.200978
G1 X122.115 Y108.211 E.00724
;WIDTH:0.200977
G1 X122.017 Y108.121 E.00175
;WIDTH:0.185215
G1 X122.009 Y108.112 E.00014
;WIDTH:0.204464
G1 X121.698 Y107.776 E.00615
;WIDTH:0.204464
G1 X121.556 Y107.6 E.00304
;WIDTH:0.182593
G1 X121.549 Y107.591 E.00013
;WIDTH:0.205956
G1 X121.344 Y107.288 E.00495
;WIDTH:0.205954
G1 X121.184 Y107.012 E.00433
;WIDTH:0.182032
G1 X121.178 Y107.003 E.00013
;WIDTH:0.205457
G1 X121.061 Y106.756 E.00369
;WIDTH:0.205456
G1 X120.91 Y106.374 E.00556
;WIDTH:0.183656
G1 X120.906 Y106.363 E.00013
;WIDTH:0.202973
G1 X120.854 Y106.191 E.00239
;WIDTH:0.202971
G1 X120.741 Y105.699 E.00671
;WIDTH:0.187278
G1 X120.739 Y105.688 E.00014
;WIDTH:0.198487
G1 X120.726 Y105.602 E.00113
;WIDTH:0.198488
G1 X120.681 Y105.006 E.00773
;WIDTH:0.192248
G1 X120.681 Y105 E.00007
;WIDTH:0.19225
G1 X120.681 Y104.994 E.00007
;WIDTH:0.198489
G1 X120.726 Y104.398 E.00773
;WIDTH:0.198488
G1 X120.739 Y104.312 E.00113
;WIDTH:0.187279
G1 X120.741 Y104.301 E.00014
;WIDTH:0.202972
G1 X120.854 Y103.809 E.00671
;WIDTH:0.202973
G1 X120.906 Y103.637 E.00239
;WIDTH:0.183655
G1 X120.91 Y103.626 E.00013
;WIDTH:0.205457
G1 X121.061 Y103.243 E.00556
;WIDTH:0.205458
G1 X121.178 Y102.997 E.00369
;WIDTH:0.182032
G1 X121.184 Y102.988 E.00013
;WIDTH:0.205955
G1 X121.344 Y102.712 E.00433
;WIDTH:0.205956
G1 X121.549 Y102.409 E.00495
;WIDTH:0.182594
G1 X121.556 Y102.4 E.00013
;WIDTH:0.204463
G1 X121.626 Y102.313 E.00151
M204 S1000
; stop printing object shape_001_v11.stl id:0 copy 0
M106 S84.15
;LAYER_CHANGE
;Z:0.4
;HEIGHT:0.2
;BEFORE_LAYER_CHANGE
G92 E0.0
;0.4


;WIPE_START
G1 F8640
G1 X121.698 Y102.224 E-.02635
;WIPE_END
G1 E-.77365 F2100
G1 Z.6 F720
;AFTER_LAYER_CHANGE
;0.4
G1 X118.976 Y99.6 F10800
G1 Z.4 F720
G1 E.8 F2100
;TYPE:Skirt/Brim
;WIDTH:0.42
G1 F1040
G1 X119.72 Y98.828 E.03362
G1 X120.645 Y98.143 E.03607
G1 X122.286 Y97.342 E.05727
G1 X123.794 Y96.965 E.04874
G1 X125.625 Y96.898 E.05746
G1 X127.183 Y97.171 E.04959
G1 X128.873 Y97.853 E.05713
G1 X130.166 Y98.723 E.04887
G1 X130.997 Y99.51 E.0359
G1 X132.076 Y100.993 E.05751
G1 X132.708 Y102.411 E.04867
G1 X132.998 Y103.525 E.03608
G1 X133.125 Y105.349 E.05733
G1 X132.907 Y106.903 E.0492
G1 X132.284 Y108.615 E.05713
G1 X131.46 Y109.938 E.04887
M73 P2 R12
G1 X130.189 Y111.259 E.05746
G1 X128.879 Y112.144 E.04959
G1 X127.847 Y112.614 E.03555
G1 X126.072 Y113.056 E.05733
G1 X124.504 Y113.111 E.0492
G1 X122.71 Y112.795 E.05713
M73 Q3 S13
G1 X121.641 Y112.397 E.03575
M73 Q3 S12
G1 X120.282 Y111.613 E.0492
G1 X118.923 Y110.389 E.05733
G1 X118.01 Y109.134 E.04867
M73 P3 R12
G1 X117.261 Y107.458 E.05755
G1 X116.992 Y106.349 E.03579
G1 X116.882 Y104.782 E.04927
G1 X117.135 Y102.981 E.05701
G1 X117.667 Y101.512 E.049
G1 X118.641 Y99.948 E.05775
G1 X118.934 Y99.644 E.01328
G1 X119.203 Y99.903 F10800
G1 F1040
G1 X119.953 Y99.125 E.03387
G1 X120.833 Y98.47 E.0344
G1 X122.428 Y97.692 E.05562
G1 X123.834 Y97.34 E.04546
G1 X125.612 Y97.274 E.0558
G1 X127.062 Y97.528 E.04612
G1 X128.708 Y98.192 E.05567
G1 X129.914 Y99.004 E.04558
G1 X130.709 Y99.753 E.03423
G1 X131.756 Y101.193 E.05585
G1 X132.346 Y102.516 E.0454
G1 X132.624 Y103.577 E.03441
G1 X132.748 Y105.349 E.05568
G1 X132.544 Y106.799 E.04591
G1 X131.939 Y108.462 E.05551
G1 X131.17 Y109.696 E.04558
G1 X129.937 Y110.978 E.0558
G1 X128.713 Y111.806 E.04629
G1 X127.73 Y112.255 E.0339
G1 X126.007 Y112.685 E.05568
G1 X124.544 Y112.736 E.04591
G1 X122.8 Y112.429 E.05551
G1 X121.783 Y112.048 E.03408
G1 X120.515 Y111.315 E.04591
G1 X119.195 Y110.127 E.05568
G1 X118.343 Y108.956 E.0454
G1 X117.615 Y107.329 E.0559
G1 X117.361 Y106.27 E.03413
G1 X117.259 Y104.808 E.04597
G1 X117.503 Y103.061 E.0553
G1 X118 Y101.688 E.04579
G1 X118.946 Y100.17 E.05607
G1 X119.162 Y99.946 E.00976
G1 X119.431 Y100.205 F10800
G1 F1040
G1 X120.186 Y99.422 E.03412
G1 X121.022 Y98.796 E.03273
G1 X122.569 Y98.041 E.05398
G1 X123.874 Y97.715 E.04219
G1 X125.6 Y97.651 E.05413
G1 X126.945 Y97.887 E.04283
G1 X128.544 Y98.531 E.05404
G1 X129.663 Y99.284 E.04229
G1 X130.42 Y99.995 E.03257
G1 X131.437 Y101.393 E.05419
G1 X131.984 Y102.62 E.04213
G1 X132.251 Y103.63 E.03273
G1 X132.371 Y105.349 E.05403
G1 X132.182 Y106.695 E.04262
G1 X131.594 Y108.31 E.05388
G1 X130.881 Y109.454 E.04229
G1 X129.684 Y110.698 E.05413
G1 X128.839 Y111.298 E.03248
