; generated by PrusaSlicer 2.4.2+win64 on 2022-09-06 at 18:26:19 UTC

; 

; external perimeters extrusion width = 0.45mm
; perimeters extrusion width = 0.45mm
; infill extrusion width = 0.45mm
; solid infill extrusion width = 0.45mm
; top infill extrusion width = 0.40mm
; first layer extrusion width = 0.45mm

; external perimeters extrusion width = 0.45mm
; perimeters extrusion width = 0.45mm
; infill extrusion width = 0.45mm
; solid infill extrusion width = 0.45mm
; top infill extrusion width = 0.40mm
; first layer extrusion width = 0.45mm

; external perimeters extrusion width = 0.45mm
; perimeters extrusion width = 0.45mm
; infill extrusion width = 0.45mm
; solid infill extrusion width = 0.45mm
; top infill extrusion width = 0.40mm
; first layer extrusion width = 0.45mm

; external perimeters extrusion width = 0.45mm
; perimeters extrusion width = 0.45mm
; infill extrusion width = 0.45mm
; solid infill extrusion width = 0.45mm
; top infill extrusion width = 0.40mm
; first layer extrusion width = 0.45mm

; external perimeters extrusion width = 0.45mm
; perimeters extrusion width = 0.45mm
; infill extrusion width = 0.45mm
; solid infill extrusion width = 0.45mm
; top infill extrusion width = 0.40mm
; first layer extrusion width = 0.45mm

; external perimeters extrusion width = 0.45mm
; perimeters extrusion width = 0.45mm
; infill extrusion width = 0.45mm
; solid infill extrusion width = 0.45mm
; top infill extrusion width = 0.40mm
; first layer extrusion width = 0.45mm

M73 P0 R80
M73 Q0 S83
M201 X1000 Y1000 Z200 E5000 ; sets maximum accelerations, mm/sec^2
M203 X200 Y200 Z12 E120 ; sets maximum feedrates, mm / sec
M204 P1250 R1250 T1250 ; sets acceleration (P, T) and retract acceleration (R), mm/sec^2
M205 X8.00 Y8.00 Z0.40 E4.50 ; sets the jerk limits, mm/sec
M205 S0 T0 ; sets the minimum extruding and travel feed rate, mm/sec
M107
;TYPE:Custom
M862.3 P "MK3S" ; printer model check
M862.1 P0.4 ; nozzle diameter check
M115 U3.10.1 ; tell printer latest fw version
G90 ; use absolute coordinates
M83 ; extruder relative mode
M104 S190 ; set extruder temp
M140 S25 ; set bed temp
M190 S25 ; wait for bed temp
M109 S190 ; wait for extruder temp
G28 W ; home all without mesh bed level
G80 ; mesh bed leveling
G1 Z0.2 F720
G1 Y-3 F1000 ; go outside print area
G92 E0
G1 X60 E9 F1000 ; intro line
G1 X100 E12.5 F1000 ; intro line
G92 E0
M221 S95

; Don't change E values below. Excessive value can damage the printer.

G21 ; set units to millimeters
G90 ; use absolute coordinates
M83 ; use relative distances for extrusion
M900 K0.05 ; Filament gcode LA 1.5
M900 K30 ; Filament gcode LA 1.0
M107
;LAYER_CHANGE
;Z:0.2
;HEIGHT:0.2
;BEFORE_LAYER_CHANGE
G92 E0.0
;0.2


G1 E-.8 F2100
G1 Z.4 F720
;AFTER_LAYER_CHANGE
;0.2
G1 X22.344 Y155.741 F10800
G1 Z.2 F720
G1 E.8 F2100
M204 S800
;TYPE:Skirt/Brim
;WIDTH:0.45
G1 F1200
G1 X23.974 Y155.595 E.0554
G1 X25.623 Y155.624 E.05583
G1 X28.15 Y156.034 E.08665
G1 X30.542 Y156.849 E.08553
G1 X32.016 Y157.6 E.056
G1 X33.397 Y158.5 E.05579
G1 X35.582 Y160.467 E.09952
G1 X36.635 Y161.766 E.05658
G1 X37.532 Y163.151 E.05588
G1 X38.729 Y165.839 E.09959
G1 X39.158 Y167.431 E.0558
G1 X39.416 Y169.062 E.05591
G1 X39.453 Y171.581 E.08526
G1 X39.064 Y174.111 E.08666
G1 X38.58 Y175.695 E.05603
G1 X37.934 Y177.211 E.05581
G1 X36.374 Y179.707 E.09962
G1 X35.296 Y180.949 E.05567
G1 X34.087 Y182.076 E.05594
G1 X31.987 Y183.534 E.08653
G1 X29.704 Y184.607 E.08541
G1 X28.122 Y185.091 E.05598
G1 X26.504 Y185.403 E.05579
G1 X23.567 Y185.506 E.09945
G1 X21.931 Y185.308 E.05579
G1 X20.32 Y184.935 E.05598
G1 X17.967 Y184.024 E.0854
G1 X15.77 Y182.716 E.08654
G1 X14.485 Y181.676 E.05597
G1 X13.321 Y180.509 E.05579
G1 X11.595 Y178.133 E.09942
G1 X10.844 Y176.666 E.05576
G1 X10.254 Y175.127 E.05581
G1 X9.687 Y172.633 E.08658
G1 X9.546 Y170.111 E.08548
G1 X9.689 Y168.464 E.05596
G1 X10.005 Y166.85 E.05568
G1 X11.011 Y164.084 E.09963
G1 X11.807 Y162.64 E.0558
G1 X12.76 Y161.28 E.05622
G1 X14.677 Y159.269 E.09406
G1 X16.047 Y158.211 E.05858
G1 X17.517 Y157.32 E.05816
G1 X19.708 Y156.378 E.08075
G1 X22.285 Y155.755 E.08975
M204 S1000
G1 X22.381 Y156.148 F10800
M204 S800
G1 F1200
G1 X23.999 Y156.002 E.05501
G1 X25.601 Y156.031 E.05423
G1 X28.035 Y156.425 E.08346
G1 X30.37 Y157.219 E.08348
G1 X31.803 Y157.947 E.0544
G1 X33.161 Y158.832 E.05488
G1 X35.276 Y160.736 E.09631
G1 X36.299 Y161.996 E.05494
G1 X37.182 Y163.359 E.05497
G1 X38.34 Y165.96 E.09638
G1 X38.762 Y167.526 E.05489
G1 X39.012 Y169.111 E.05432
G1 X39.048 Y171.536 E.08209
G1 X38.67 Y174.007 E.0846
G1 X38.202 Y175.545 E.05443
G1 X37.566 Y177.037 E.0549
G1 X36.056 Y179.452 E.0964
G1 X34.996 Y180.674 E.05477
G1 X33.821 Y181.769 E.05435
G1 X31.798 Y183.173 E.08334
G1 X29.57 Y184.223 E.08337
G1 X28.034 Y184.694 E.05438
G1 X26.442 Y185.001 E.05488
G1 X23.601 Y185.1 E.09624
G1 X21.991 Y184.905 E.05488
G1 X20.426 Y184.542 E.05438
G1 X18.13 Y183.651 E.08336
G1 X16.015 Y182.39 E.08335
G1 X14.765 Y181.381 E.05437
G1 X13.621 Y180.233 E.05488
G1 X11.95 Y177.933 E.09621
G1 X11.212 Y176.491 E.05485
G1 X10.639 Y174.995 E.05421
G1 X10.092 Y172.593 E.0834
G1 X9.953 Y170.132 E.08343
G1 X10.091 Y168.532 E.05436
G1 X10.402 Y166.944 E.05478
G1 X11.375 Y164.266 E.09642
G1 X12.158 Y162.847 E.05489
G1 X13.085 Y161.526 E.0546
G1 X14.939 Y159.581 E.09096
G1 X16.268 Y158.553 E.05688
G1 X17.715 Y157.676 E.05728
G1 X19.853 Y156.759 E.07873
G1 X22.322 Y156.163 E.08599
M204 S1000
G1 X22.418 Y156.556 F10800
M204 S800
G1 F1200
G1 X24.003 Y156.409 E.05388
G1 X25.579 Y156.438 E.05336
G1 X27.953 Y156.824 E.08141
G1 X30.199 Y157.588 E.0803
G1 X31.609 Y158.305 E.05354
G1 X32.926 Y159.164 E.05324
G1 X34.97 Y161.005 E.09311
G1 X35.976 Y162.244 E.05403
G1 X36.831 Y163.567 E.05332
G1 X37.951 Y166.082 E.09319
G1 X38.362 Y167.6 E.05324
G1 X38.607 Y169.16 E.05345
G1 X38.641 Y171.525 E.08005
G1 X38.276 Y173.902 E.08141
G1 X37.815 Y175.416 E.05356
G1 X37.197 Y176.863 E.05325
G1 X35.738 Y179.198 E.09321
G1 X34.71 Y180.384 E.05312
G1 X33.554 Y181.461 E.05349
G1 X31.609 Y182.812 E.08016
G1 X29.437 Y183.838 E.08131
G1 X27.925 Y184.301 E.05351
G1 X26.381 Y184.598 E.05323
G1 X23.634 Y184.694 E.09305
G1 X22.072 Y184.506 E.05323
G1 X20.532 Y184.149 E.05352
G1 X18.324 Y183.292 E.08018
G1 X16.259 Y182.065 E.0813
G1 X15.03 Y181.071 E.0535
G1 X13.92 Y179.957 E.05323
G1 X12.305 Y177.733 E.09302
G1 X11.588 Y176.335 E.0532
G1 X11.024 Y174.863 E.05335
G1 X10.498 Y172.552 E.08022
G1 X10.36 Y170.152 E.08138
G1 X10.496 Y168.578 E.05349
G1 X10.798 Y167.038 E.05313
G1 X11.739 Y164.449 E.09323
G1 X12.498 Y163.071 E.05324
G1 X13.409 Y161.772 E.05371
G1 X15.2 Y159.894 E.08786
G1 X16.508 Y158.882 E.05596
G1 X17.914 Y158.031 E.05562
G1 X19.966 Y157.151 E.07558
G1 X22.359 Y156.57 E.08338
M204 S1000
G1 X22.455 Y156.964 F10800
M204 S800
G1 F1200
G1 X24.028 Y156.816 E.0535
G1 X25.557 Y156.845 E.05175
G1 X27.838 Y157.215 E.07823
G1 X30.028 Y157.958 E.07826
G1 X31.395 Y158.652 E.05192
G1 X32.69 Y159.497 E.05232
G1 X34.664 Y161.274 E.08992
G1 X35.64 Y162.475 E.05237
G1 X36.481 Y163.775 E.05241
G1 X37.562 Y166.203 E.08999
G1 X37.966 Y167.696 E.05233
G1 X38.203 Y169.209 E.05185
G1 X38.236 Y171.48 E.07689
G1 X37.883 Y173.798 E.07935
G1 X37.437 Y175.266 E.05194
G1 X36.829 Y176.688 E.05234
G1 X35.42 Y178.943 E.09001
G1 X34.41 Y180.109 E.05221
G1 X33.287 Y181.153 E.05188
G1 X31.391 Y182.468 E.07812
G1 X29.303 Y183.453 E.07814
G1 X27.838 Y183.904 E.0519
G1 X26.32 Y184.195 E.05232
G1 X23.667 Y184.288 E.08985
G1 X22.132 Y184.103 E.05232
G1 X20.639 Y183.755 E.0519
G1 X18.487 Y182.919 E.07814
G1 X16.503 Y181.739 E.07813
G1 X15.31 Y180.776 E.05189
G1 X14.22 Y179.681 E.05232
G1 X12.66 Y177.534 E.08982
G1 X11.955 Y176.159 E.05229
G1 X11.41 Y174.731 E.05174
G1 X10.898 Y172.479 E.07818
G1 X10.767 Y170.172 E.0782
G1 X10.897 Y168.645 E.05188
G1 X11.194 Y167.131 E.05222
G1 X12.103 Y164.632 E.09003
G1 X12.849 Y163.278 E.05233
G1 X13.733 Y162.019 E.05207
G1 X15.462 Y160.206 E.08478
G1 X16.728 Y159.224 E.05425
G1 X18.112 Y158.387 E.05474
G1 X20.11 Y157.532 E.07356
G1 X22.396 Y156.978 E.07963
M204 S1000
G1 X22.492 Y157.371 F10800
M204 S800
G1 F1200
G1 X24.032 Y157.223 E.05235
G1 X25.534 Y157.251 E.05088
G1 X27.756 Y157.614 E.07619
G1 X29.856 Y158.327 E.07508
G1 X31.201 Y159.01 E.05105
G1 X32.454 Y159.829 E.05066
G1 X34.358 Y161.544 E.08674
G1 X35.304 Y162.705 E.05071
G1 X36.13 Y163.983 E.0515
G1 X37.174 Y166.325 E.0868
G1 X37.566 Y167.77 E.05067
G1 X37.798 Y169.258 E.05097
G1 X37.829 Y171.469 E.07486
G1 X37.489 Y173.694 E.07617
G1 X37.05 Y175.137 E.05107
G1 X36.461 Y176.513 E.05068
G1 X35.101 Y178.689 E.08683
G1 X34.125 Y179.819 E.05056
G1 X33.021 Y180.845 E.05101
G1 X31.202 Y182.107 E.07495
G1 X29.169 Y183.068 E.07609
G1 X27.729 Y183.511 E.05102
G1 X26.259 Y183.792 E.05066
G1 X23.699 Y183.882 E.08668
G1 X22.213 Y183.704 E.05066
G1 X20.745 Y183.362 E.05102
G1 X18.651 Y182.546 E.07609
G1 X16.748 Y181.413 E.07496
G1 X15.575 Y180.466 E.05102
G1 X14.52 Y179.405 E.05066
G1 X13.015 Y177.334 E.08665
G1 X12.331 Y176.003 E.05063
G1 X11.795 Y174.6 E.05086
G1 X11.299 Y172.406 E.07614
G1 X11.173 Y170.193 E.07503
G1 X11.302 Y168.691 E.05101
G1 X11.591 Y167.226 E.05056
G1 X12.467 Y164.814 E.08685
G1 X13.189 Y163.502 E.05067
G1 X14.058 Y162.265 E.05118
G1 X15.723 Y160.518 E.08169
G1 X16.968 Y159.553 E.05333
G1 X18.31 Y158.743 E.05307
G1 X20.223 Y157.923 E.07043
G1 X22.434 Y157.385 E.07702
M204 S1000
G1 X22.529 Y157.779 F10800
M204 S800
G1 F1200
G1 X24.057 Y157.629 E.05196
G1 X25.512 Y157.658 E.04925
G1 X27.641 Y158.005 E.07303
G1 X29.685 Y158.697 E.07305
G1 X30.988 Y159.357 E.04942
G1 X32.218 Y160.161 E.04975
G1 X34.053 Y161.813 E.08356
G1 X34.982 Y162.953 E.04979
G1 X35.78 Y164.19 E.04982
G1 X36.785 Y166.447 E.08362
G1 X37.17 Y167.865 E.04976
G1 X37.394 Y169.306 E.04935
G1 X37.424 Y171.425 E.07172
G1 X37.095 Y173.59 E.07413
G1 X36.672 Y174.987 E.04943
G1 X36.093 Y176.339 E.04976
G1 X34.783 Y178.434 E.08365
G1 X33.824 Y179.544 E.04964
G1 X32.755 Y180.536 E.04938
G1 X30.984 Y181.763 E.07292
G1 X29.036 Y182.683 E.07293
G1 X27.641 Y183.114 E.0494
G1 X26.198 Y183.39 E.04975
G1 X23.732 Y183.476 E.0835
G1 X22.273 Y183.301 E.04975
G1 X20.852 Y182.969 E.0494
G1 X18.844 Y182.187 E.07293
G1 X16.992 Y181.087 E.07293
G1 X15.856 Y180.171 E.04939
G1 X14.819 Y179.129 E.04975
G1 X13.37 Y177.134 E.08347
G1 X12.699 Y175.827 E.04972
G1 X12.181 Y174.468 E.04924
G1 X11.705 Y172.365 E.07298
G1 X11.58 Y170.212 E.07299
G1 X11.703 Y168.759 E.04938
G1 X11.987 Y167.32 E.04965
G1 X12.831 Y164.996 E.08367
G1 X13.54 Y163.709 E.04975
G1 X14.382 Y162.512 E.04953
G1 X15.984 Y160.831 E.07862
G1 X17.208 Y159.882 E.05241
G1 X18.508 Y159.099 E.05138
G1 X20.367 Y158.304 E.06843
G1 X22.471 Y157.793 E.07328
M204 S1000
G1 X22.567 Y158.186 F10800
M204 S800
G1 F1200
G1 X24.06 Y158.036 E.05082
G1 X25.489 Y158.065 E.04837
G1 X27.559 Y158.404 E.07099
G1 X29.514 Y159.067 E.06989
G1 X30.794 Y159.715 E.04855
G1 X31.982 Y160.493 E.04807
G1 X33.747 Y162.082 E.0804
G1 X34.646 Y163.184 E.04812
G1 X35.429 Y164.398 E.04891
G1 X36.396 Y166.569 E.08045
G1 X36.769 Y167.939 E.04808
G1 X36.99 Y169.354 E.04848
G1 X37.017 Y171.413 E.06969
G1 X36.701 Y173.486 E.07096
G1 X36.285 Y174.858 E.04855
G1 X35.725 Y176.164 E.04809
G1 X34.465 Y178.18 E.08049
G1 X33.539 Y179.253 E.04797
G1 X32.488 Y180.228 E.04851
G1 X30.795 Y181.403 E.06977
G1 X28.902 Y182.299 E.07089
G1 X27.532 Y182.721 E.04852
G1 X26.137 Y182.987 E.04807
G1 X23.765 Y183.07 E.08035
G1 X22.354 Y182.902 E.04807
G1 X20.959 Y182.576 E.04852
G1 X19.008 Y181.814 E.07089
G1 X17.236 Y180.761 E.06978
G1 X16.12 Y179.861 E.04852
G1 X15.119 Y178.853 E.04807
G1 X13.724 Y176.934 E.08032
G1 X13.075 Y175.672 E.04804
G1 X12.566 Y174.337 E.04836
G1 X12.105 Y172.292 E.07094
G1 X11.987 Y170.232 E.06984
G1 X12.108 Y168.805 E.04851
G1 X12.383 Y167.414 E.04797
G1 X13.196 Y165.179 E.08052
G1 X13.879 Y163.934 E.04808
G1 X14.706 Y162.759 E.04862
G1 X16.268 Y161.123 E.07656
G1 X17.448 Y160.212 E.05046
G1 X18.706 Y159.455 E.0497
G1 X20.511 Y158.685 E.06644
G1 X22.508 Y158.201 E.06955
M204 S1000
G1 X22.604 Y158.594 F10800
M204 S800
G1 F1200
G1 X22.706 Y158.569 E.00356
G1 X24.086 Y158.443 E.04692
G1 X25.466 Y158.471 E.04673
G1 X27.444 Y158.795 E.06784
G1 X29.344 Y159.437 E.06786
G1 X30.58 Y160.061 E.0469
G1 X31.746 Y160.825 E.04716
G1 X33.442 Y162.352 E.07724
G1 X34.323 Y163.432 E.0472
G1 X35.079 Y164.605 E.04722
G1 X36.008 Y166.691 E.07729
G1 X36.373 Y168.035 E.04716
G1 X36.585 Y169.403 E.04684
G1 X36.612 Y171.369 E.06656
G1 X36.307 Y173.382 E.06892
G1 X35.907 Y174.708 E.0469
G1 X35.357 Y175.989 E.04717
G1 X34.146 Y177.926 E.07732
G1 X33.238 Y178.979 E.04706
G1 X32.222 Y179.92 E.04687
G1 X30.577 Y181.058 E.06774
G1 X28.767 Y181.914 E.06775
G1 X27.445 Y182.323 E.04687
G1 X26.076 Y182.584 E.04715
G1 X23.797 Y182.663 E.07718
G1 X22.414 Y182.499 E.04715
G1 X21.066 Y182.183 E.04687
G1 X19.201 Y181.456 E.06775
G1 X17.48 Y180.434 E.06775
G1 X16.401 Y179.566 E.04687
G1 X15.419 Y178.578 E.04716
G1 X14.079 Y176.734 E.07716
G1 X13.442 Y175.496 E.04712
G1 X12.952 Y174.206 E.04672
G1 X12.511 Y172.252 E.0678
G1 X12.394 Y170.252 E.06781
G1 X12.51 Y168.872 E.04686
G1 X12.78 Y167.509 E.04706
G1 X13.56 Y165.361 E.07735
G1 X14.231 Y164.14 E.04716
G1 X15.03 Y163.006 E.04696
G1 X16.529 Y161.436 E.07349
G1 X17.668 Y160.554 E.04873
G1 X18.903 Y159.811 E.04881
G1 X20.655 Y159.066 E.06444
G1 X22.545 Y158.608 E.06583
M204 S1000
G1 X22.641 Y159.002 F10800
M204 S800
G1 F1200
G1 X22.758 Y158.973 E.00408
G1 X24.089 Y158.85 E.04525
G1 X25.443 Y158.878 E.04584
G1 X27.362 Y159.194 E.06581
G1 X29.173 Y159.806 E.06472
G1 X30.387 Y160.42 E.04602
G1 X31.509 Y161.157 E.04546
G1 X33.136 Y162.622 E.0741
G1 X33.987 Y163.662 E.04551
G1 X34.728 Y164.812 E.0463
G1 X35.619 Y166.813 E.07413
G1 X35.973 Y168.109 E.04547
G1 X36.181 Y169.451 E.04595
G1 X36.204 Y171.357 E.06454
G1 X35.913 Y173.278 E.06577
G1 X35.52 Y174.58 E.04602
G1 X34.99 Y175.814 E.04548
G1 X33.828 Y177.672 E.07418
G1 X32.953 Y178.688 E.04537
G1 X31.956 Y179.611 E.04598
G1 X30.359 Y180.714 E.0657
G1 X28.633 Y181.529 E.06461
G1 X27.335 Y181.931 E.04599
G1 X26.016 Y182.181 E.04546
G1 X23.829 Y182.257 E.07405
G1 X22.495 Y182.1 E.04546
G1 X21.173 Y181.79 E.04599
G1 X19.394 Y181.097 E.06461
G1 X17.723 Y180.108 E.06572
G1 X16.665 Y179.256 E.04598
G1 X15.72 Y178.302 E.04547
G1 X14.434 Y176.533 E.07402
G1 X13.819 Y175.34 E.04543
G1 X13.337 Y174.074 E.04584
G1 X12.916 Y172.211 E.06467
G1 X12.801 Y170.271 E.06577
G1 X12.914 Y168.918 E.04597
G1 X13.176 Y167.603 E.04537
G1 X13.925 Y165.543 E.07421
G1 X14.57 Y164.365 E.04547
G1 X15.354 Y163.253 E.04605
G1 X16.791 Y161.748 E.07041
G1 X17.907 Y160.884 E.0478
G1 X19.101 Y160.168 E.04711
G1 X20.768 Y159.458 E.06133
G1 X22.583 Y159.016 E.06323
M204 S1000
G1 X22.679 Y159.409 F10800
M204 S800
G1 F1200
G1 X22.811 Y159.377 E.0046
G1 X24.115 Y159.257 E.04435
G1 X25.42 Y159.285 E.04418
G1 X27.248 Y159.585 E.06269
G1 X29.003 Y160.177 E.0627
G1 X30.173 Y160.766 E.04435
G1 X31.273 Y161.488 E.04454
G1 X32.831 Y162.891 E.07096
G1 X33.665 Y163.911 E.04459
G1 X34.377 Y165.019 E.0446
G1 X35.23 Y166.935 E.07099
G1 X35.577 Y168.205 E.04455
G1 X35.776 Y169.498 E.04429
G1 X35.797 Y171.345 E.06253
G1 X35.519 Y173.175 E.06264
G1 X35.142 Y174.43 E.04435
G1 X34.622 Y175.639 E.04455
G1 X33.509 Y177.418 E.07104
G1 X32.652 Y178.413 E.04445
G1 X31.691 Y179.302 E.04432
G1 X30.17 Y180.353 E.06258
G1 X28.499 Y181.145 E.0626
G1 X27.248 Y181.533 E.04433
G1 X25.955 Y181.778 E.04454
G1 X23.862 Y181.851 E.07091
G1 X22.555 Y181.697 E.04454
G1 X21.28 Y181.397 E.04433
G1 X19.558 Y180.724 E.06259
G1 X17.967 Y179.781 E.06259
G1 X16.946 Y178.962 E.04432
G1 X16.02 Y178.027 E.04455
G1 X14.789 Y176.333 E.07088
G1 X14.186 Y175.164 E.04451
G1 X13.723 Y173.944 E.04417
G1 X13.317 Y172.138 E.06265
G1 X13.208 Y170.29 E.06264
G1 X13.316 Y168.986 E.04431
G1 X13.572 Y167.698 E.04445
G1 X14.289 Y165.725 E.07107
G1 X14.921 Y164.57 E.04454
M73 P1 R80
G1 X15.678 Y163.5 E.04437
G1 X17.052 Y162.06 E.06737
G1 X18.127 Y161.226 E.04605
G1 X19.298 Y160.524 E.04621
G1 X20.912 Y159.839 E.05934
G1 X22.62 Y159.423 E.05952
M204 S1000
G1 X22.716 Y159.817 F10800
M204 S800
G1 F1200
