; generated by PrusaSlicer 2.5.0+win64 on 2022-09-22 at 16:47:06 UTC

; 

; external perimeters extrusion width = 0.45mm
; perimeters extrusion width = 0.45mm
; infill extrusion width = 0.45mm
; solid infill extrusion width = 0.45mm
; top infill extrusion width = 0.40mm
; first layer extrusion width = 0.45mm

M73 P0 R4
M73 Q0 S4
M201 X1000 Y1000 Z200 E5000 ; sets maximum accelerations, mm/sec^2
M203 X200 Y200 Z12 E120 ; sets maximum feedrates, mm / sec
M204 P1250 R1250 T1250 ; sets acceleration (P, T) and retract acceleration (R), mm/sec^2
M205 X8.00 Y8.00 Z0.40 E4.50 ; sets the jerk limits, mm/sec
M205 S0 T0 ; sets the minimum extruding and travel feed rate, mm/sec
M107
;TYPE:Custom
M862.3 P "MK3S" ; printer model check
M862.1 P0.4 ; nozzle diameter check
M115 U3.10.1 ; tell printer latest fw version
G90 ; use absolute coordinates
M83 ; extruder relative mode
M104 S210 ; set extruder temp
M140 S50 ; set bed temp
M190 S50 ; wait for bed temp
M109 S210 ; wait for extruder temp
G28 W ; home all without mesh bed level
G80 ; mesh bed leveling
G1 Z0.2 F720
G1 Y-3 F1000 ; go outside print area
G92 E0
G1 X60 E9 F1000 ; intro line
G1 X100 E12.5 F1000 ; intro line
G92 E0
M221 S95

; Don't change E values below. Excessive value can damage the printer.

G21 ; set units to millimeters
G90 ; use absolute coordinates
M83 ; use relative distances for extrusion
M900 K0.05 ; Filament gcode LA 1.5
M900 K30 ; Filament gcode LA 1.0
M107
;LAYER_CHANGE
;Z:0.2
;HEIGHT:0.2
;BEFORE_LAYER_CHANGE
G92 E0.0
;0.2


M73 P1 R4
M73 Q1 S4
G1 E-.8 F2100
M73 P2 R4
M73 Q2 S4
G1 Z.4 F720
;AFTER_LAYER_CHANGE
;0.2
; printing object shape_002_v11.stl id:0 copy 3
G1 X158.986 Y125.245 F10800
G1 Z.2 F720
G1 E.8 F2100
M204 S800
;TYPE:Internal infill
;WIDTH:0.45
G1 F1200
G1 X178.719 Y125.245 E.66794
G1 X178.719 Y124.838 E.01379
M73 P3 R4
M73 Q3 S4
G1 X159.169 Y124.838 E.66174
G1 X159.169 Y124.431 E.01379
G1 X178.719 Y124.431 E.66174
G1 X178.719 Y124.023 E.01379
M73 Q4 S4
G1 X159.169 Y124.023 E.66174
G1 X159.169 Y123.616 E.01379
M73 P4 R4
G1 X178.719 Y123.616 E.66174
G1 X178.719 Y123.209 E.01379
G1 X159.169 Y123.209 E.66174
G1 X159.169 Y122.801 E.01379
M73 P5 R4
M73 Q5 S4
G1 X178.719 Y122.801 E.66174
G1 X178.719 Y122.394 E.01379
G1 X159.169 Y122.394 E.66174
G1 X159.169 Y121.987 E.01379
M73 Q6 S4
G1 X178.719 Y121.987 E.66174
G1 X178.719 Y121.58 E.01379
M73 P6 R4
G1 X159.169 Y121.58 E.66174
G1 X159.169 Y121.172 E.01379
G1 X178.719 Y121.172 E.66174
G1 X178.719 Y120.765 E.01379
M73 P7 R4
M73 Q7 S4
G1 X159.169 Y120.765 E.66174
G1 X159.169 Y120.358 E.01379
G1 X178.719 Y120.358 E.66174
G1 X178.719 Y119.95 E.01379
G1 X159.169 Y119.95 E.66174
G1 X159.169 Y119.543 E.01379
M73 P8 R4
M73 Q8 S4
G1 X178.719 Y119.543 E.66174
G1 X178.719 Y119.136 E.01379
G1 X159.169 Y119.136 E.66174
G1 X159.169 Y118.729 E.01379
M73 P8 R3
M73 Q9 S4
G1 X178.719 Y118.729 E.66174
G1 X178.719 Y118.321 E.01379
M73 P9 R3
M73 Q9 S3
G1 X159.169 Y118.321 E.66174
G1 X159.169 Y117.914 E.01379
G1 X178.719 Y117.914 E.66174
G1 X178.719 Y117.507 E.01379
M73 P10 R3
M73 Q10 S3
G1 X159.169 Y117.507 E.66174
G1 X159.169 Y117.099 E.01379
G1 X178.719 Y117.099 E.66174
G1 X178.719 Y116.692 E.01379
M73 Q11 S3
G1 X159.169 Y116.692 E.66174
G1 X159.169 Y116.285 E.01379
M73 P11 R3
G1 X178.719 Y116.285 E.66174
G1 X178.719 Y115.878 E.01379
G1 X159.169 Y115.878 E.66174
G1 X159.169 Y115.47 E.01379
M73 P12 R3
M73 Q12 S3
G1 X178.719 Y115.47 E.66174
G1 X178.719 Y115.063 E.01379
G1 X159.169 Y115.063 E.66174
G1 X159.169 Y114.656 E.01379
G1 X178.719 Y114.656 E.66174
G1 X178.719 Y114.248 E.01379
M73 P13 R3
M73 Q13 S3
G1 X159.169 Y114.248 E.66174
G1 X159.169 Y113.841 E.01379
G1 X178.719 Y113.841 E.66174
G1 X178.719 Y113.434 E.01379
M73 Q14 S3
G1 X159.169 Y113.434 E.66174
M73 P14 R3
G1 X159.169 Y113.027 E.01379
G1 X178.719 Y113.027 E.66174
G1 X178.719 Y112.619 E.01379
G1 X159.169 Y112.619 E.66174
G1 X159.169 Y112.212 E.01379
M73 P15 R3
M73 Q15 S3
G1 X178.719 Y112.212 E.66174
G1 X178.719 Y111.805 E.01379
G1 X159.169 Y111.805 E.66174
G1 X159.169 Y111.397 E.01379
M73 Q16 S3
G1 X178.719 Y111.397 E.66174
G1 X178.719 Y110.99 E.01379
M73 P16 R3
G1 X159.169 Y110.99 E.66174
G1 X159.169 Y110.583 E.01379
G1 X178.719 Y110.583 E.66174
G1 X178.719 Y110.176 E.01379
M73 P17 R3
M73 Q17 S3
G1 X159.169 Y110.176 E.66174
G1 X159.169 Y109.768 E.01379
G1 X178.719 Y109.768 E.66174
G1 X178.719 Y109.361 E.01379
G1 X159.169 Y109.361 E.66174
G1 X159.169 Y108.954 E.01379
M73 P18 R3
M73 Q18 S3
G1 X178.719 Y108.954 E.66174
G1 X178.719 Y108.546 E.01379
G1 X159.169 Y108.546 E.66174
G1 X159.169 Y108.139 E.01379
M73 P19 R3
M73 Q19 S3
G1 X178.719 Y108.139 E.66174
G1 X178.719 Y107.732 E.01379
G1 X159.169 Y107.732 E.66174
G1 X159.169 Y107.325 E.01379
G1 X178.719 Y107.325 E.66174
G1 X178.719 Y106.917 E.01379
M73 P20 R3
M73 Q20 S3
G1 X159.169 Y106.917 E.66174
G1 X159.169 Y106.51 E.01379
G1 X178.719 Y106.51 E.66174
G1 X178.719 Y106.103 E.01379
M73 Q21 S3
G1 X159.169 Y106.103 E.66174
G1 X159.169 Y105.695 E.01379
M73 P21 R3
G1 X178.903 Y105.695 E.66794
M204 S1000
; stop printing object shape_002_v11.stl id:0 copy 3
; printing object shape_002_v11.stl id:0 copy 2

M104 S220 ; set extruder temp
M109 S220 ; wait for extruder temp

;WIPE_START
G1 F8640
G1 X175.611 Y105.695 E-.76
;WIPE_END
G1 E-.04 F2100
G1 Z.6 F720
G1 X154.033 Y107.667 F10800
G1 Z.2 F720
M73 Q22 S3
G1 E.8 F2100
M204 S800
G1 F1200
G1 X134.3 Y107.667 E.66794
G1 X134.3 Y108.074 E.01379
M73 P22 R3
G1 X153.85 Y108.074 E.66174
G1 X153.85 Y108.482 E.01379
G1 X134.3 Y108.482 E.66174
G1 X134.3 Y108.889 E.01379
M73 P23 R3
M73 Q23 S3
G1 X153.85 Y108.889 E.66174
G1 X153.85 Y109.296 E.01379
G1 X134.3 Y109.296 E.66174
G1 X134.3 Y109.704 E.01379
G1 X153.85 Y109.704 E.66174
M73 Q24 S3
G1 X153.85 Y110.111 E.01379
M73 P24 R3
G1 X134.3 Y110.111 E.66174
G1 X134.3 Y110.518 E.01379
G1 X153.85 Y110.518 E.66174
G1 X153.85 Y110.926 E.01379
M73 P25 R3
M73 Q25 S3
G1 X134.3 Y110.926 E.66174
G1 X134.3 Y111.333 E.01379
G1 X153.85 Y111.333 E.66174
G1 X153.85 Y111.74 E.01379
G1 X134.3 Y111.74 E.66174
G1 X134.3 Y112.147 E.01379
M73 P26 R3
M73 Q26 S3
G1 X153.85 Y112.147 E.66174
G1 X153.85 Y112.555 E.01379
G1 X134.3 Y112.555 E.66174
G1 X134.3 Y112.962 E.01379
M73 Q27 S3
G1 X153.85 Y112.962 E.66174
G1 X153.85 Y113.369 E.01379
M73 P27 R3
G1 X134.3 Y113.369 E.66174
G1 X134.3 Y113.777 E.01379
G1 X153.85 Y113.777 E.66174
G1 X153.85 Y114.184 E.01379
M73 P28 R3
M73 Q28 S3
G1 X134.3 Y114.184 E.66174
G1 X134.3 Y114.591 E.01379
G1 X153.85 Y114.591 E.66174
G1 X153.85 Y114.998 E.01379
M73 Q29 S3
G1 X134.3 Y114.998 E.66174
G1 X134.3 Y115.406 E.01379
M73 P29 R3
G1 X153.85 Y115.406 E.66174
G1 X153.85 Y115.813 E.01379
G1 X134.3 Y115.813 E.66174
G1 X134.3 Y116.22 E.01379
M73 P30 R3
M73 Q30 S3
G1 X153.85 Y116.22 E.66174
G1 X153.85 Y116.628 E.01379
G1 X134.3 Y116.628 E.66174
G1 X134.3 Y117.035 E.01379
G1 X153.85 Y117.035 E.66174
G1 X153.85 Y117.442 E.01379
M73 P31 R3
M73 Q31 S3
G1 X134.3 Y117.442 E.66174
G1 X134.3 Y117.849 E.01379
G1 X153.85 Y117.849 E.66174
G1 X153.85 Y118.257 E.01379
M73 P31 R2
M73 Q32 S2
G1 X134.3 Y118.257 E.66174
G1 X134.3 Y118.664 E.01379
M73 P32 R2
G1 X153.85 Y118.664 E.66174
G1 X153.85 Y119.071 E.01379
G1 X134.3 Y119.071 E.66174
G1 X134.3 Y119.479 E.01379
M73 P33 R2
M73 Q33 S2
G1 X153.85 Y119.479 E.66174
G1 X153.85 Y119.886 E.01379
G1 X134.3 Y119.886 E.66174
G1 X134.3 Y120.293 E.01379
M73 Q34 S2
G1 X153.85 Y120.293 E.66174
G1 X153.85 Y120.7 E.01379
M73 P34 R2
G1 X134.3 Y120.7 E.66174
G1 X134.3 Y121.108 E.01379
G1 X153.85 Y121.108 E.66174
G1 X153.85 Y121.515 E.01379
M73 P35 R2
M73 Q35 S2
G1 X134.3 Y121.515 E.66174
G1 X134.3 Y121.922 E.01379
G1 X153.85 Y121.922 E.66174
G1 X153.85 Y122.33 E.01379
G1 X134.3 Y122.33 E.66174
G1 X134.3 Y122.737 E.01379
M73 P36 R2
M73 Q36 S2
G1 X153.85 Y122.737 E.66174
G1 X153.85 Y123.144 E.01379
G1 X134.3 Y123.144 E.66174
G1 X134.3 Y123.551 E.01379
M73 Q37 S2
G1 X153.85 Y123.551 E.66174
M73 P37 R2
G1 X153.85 Y123.959 E.01379
G1 X134.3 Y123.959 E.66174
G1 X134.3 Y124.366 E.01379
G1 X153.85 Y124.366 E.66174
G1 X153.85 Y124.773 E.01379
M73 P38 R2
M73 Q38 S2
G1 X134.3 Y124.773 E.66174
G1 X134.3 Y125.181 E.01379
G1 X153.85 Y125.181 E.66174
G1 X153.85 Y125.588 E.01379
M73 Q39 S2
G1 X134.3 Y125.588 E.66174
G1 X134.3 Y125.995 E.01379
M73 P39 R2
G1 X153.85 Y125.995 E.66174
G1 X153.85 Y126.402 E.01379
G1 X134.3 Y126.402 E.66174
G1 X134.3 Y126.81 E.01379
M73 P40 R2
M73 Q40 S2
G1 X153.85 Y126.81 E.66174
G1 X153.85 Y127.217 E.01379
G1 X134.117 Y127.217 E.66794
M204 S1000
; stop printing object shape_002_v11.stl id:0 copy 2
; printing object shape_002_v11.stl id:0 copy 0

M104 S230 ; set extruder temp
M109 S230 ; wait for extruder temp

;WIPE_START
G1 F8640
G1 X137.408 Y127.217 E-.76
;WIPE_END
G1 E-.04 F2100
G1 Z.6 F720
M73 Q41 S2
G1 X126.004 Y107.477 F10800
G1 Z.2 F720
M73 P41 R2
G1 E.8 F2100
M204 S800
G1 F1200
G1 X106.271 Y107.477 E.66794
G1 X106.271 Y107.884 E.01379
G1 X125.821 Y107.884 E.66174
G1 X125.821 Y108.291 E.01379
G1 X106.271 Y108.291 E.66174
G1 X106.271 Y108.698 E.01379
M73 P42 R2
M73 Q42 S2
G1 X125.821 Y108.698 E.66174
G1 X125.821 Y109.106 E.01379
G1 X106.271 Y109.106 E.66174
G1 X106.271 Y109.513 E.01379
M73 P43 R2
M73 Q43 S2
G1 X125.821 Y109.513 E.66174
G1 X125.821 Y109.92 E.01379
G1 X106.271 Y109.92 E.66174
G1 X106.271 Y110.328 E.01379
G1 X125.821 Y110.328 E.66174
G1 X125.821 Y110.735 E.01379
M73 P44 R2
M73 Q44 S2
G1 X106.271 Y110.735 E.66174
G1 X106.271 Y111.142 E.01379
G1 X125.821 Y111.142 E.66174
G1 X125.821 Y111.549 E.01379
M73 Q45 S2
G1 X106.271 Y111.549 E.66174
G1 X106.271 Y111.957 E.01379
M73 P45 R2
G1 X125.821 Y111.957 E.66174
G1 X125.821 Y112.364 E.01379
G1 X106.271 Y112.364 E.66174
G1 X106.271 Y112.771 E.01379
M73 P46 R2
M73 Q46 S2
G1 X125.821 Y112.771 E.66174
G1 X125.821 Y113.179 E.01379
G1 X106.271 Y113.179 E.66174
G1 X106.271 Y113.586 E.01379
G1 X125.821 Y113.586 E.66174
G1 X125.821 Y113.993 E.01379
M73 P47 R2
M73 Q47 S2
G1 X106.271 Y113.993 E.66174
G1 X106.271 Y114.4 E.01379
G1 X125.821 Y114.4 E.66174
G1 X125.821 Y114.808 E.01379
M73 P48 R2
M73 Q48 S2
G1 X106.271 Y114.808 E.66174
G1 X106.271 Y115.215 E.01379
G1 X125.821 Y115.215 E.66174
G1 X125.821 Y115.622 E.01379
G1 X106.271 Y115.622 E.66174
G1 X106.271 Y116.03 E.01379
M73 P49 R2
M73 Q49 S2
G1 X125.821 Y116.03 E.66174
G1 X125.821 Y116.437 E.01379
G1 X106.271 Y116.437 E.66174
G1 X106.271 Y116.844 E.01379
M73 Q50 S2
G1 X125.821 Y116.844 E.66174
G1 X125.821 Y117.251 E.01379
M73 P50 R2
G1 X106.271 Y117.251 E.66174
G1 X106.271 Y117.659 E.01379
G1 X125.821 Y117.659 E.66174
G1 X125.821 Y118.066 E.01379
M73 P51 R2
M73 Q51 S2
G1 X106.271 Y118.066 E.66174
G1 X106.271 Y118.473 E.01379
G1 X125.821 Y118.473 E.66174
G1 X125.821 Y118.881 E.01379
G1 X106.271 Y118.881 E.66174
G1 X106.271 Y119.288 E.01379
M73 P52 R2
M73 Q52 S2
G1 X125.821 Y119.288 E.66174
G1 X125.821 Y119.695 E.01379
G1 X106.271 Y119.695 E.66174
G1 X106.271 Y120.102 E.01379
M73 P53 R2
M73 Q53 S2
G1 X125.821 Y120.102 E.66174
G1 X125.821 Y120.51 E.01379
G1 X106.271 Y120.51 E.66174
G1 X106.271 Y120.917 E.01379
G1 X125.821 Y120.917 E.66174
G1 X125.821 Y121.324 E.01379
M73 P54 R2
M73 Q54 S2
G1 X106.271 Y121.324 E.66174
G1 X106.271 Y121.732 E.01379
M73 P54 R1
M73 Q54 S1
G1 X125.821 Y121.732 E.66174
G1 X125.821 Y122.139 E.01379
M73 Q55 S1
G1 X106.271 Y122.139 E.66174
G1 X106.271 Y122.546 E.01379
M73 P55 R1
G1 X125.821 Y122.546 E.66174
G1 X125.821 Y122.953 E.01379
G1 X106.271 Y122.953 E.66174
G1 X106.271 Y123.361 E.01379
M73 P56 R1
M73 Q56 S1
G1 X125.821 Y123.361 E.66174
G1 X125.821 Y123.768 E.01379
G1 X106.271 Y123.768 E.66174
G1 X106.271 Y124.175 E.01379
G1 X125.821 Y124.175 E.66174
G1 X125.821 Y124.583 E.01379
M73 P57 R1
M73 Q57 S1
G1 X106.271 Y124.583 E.66174
G1 X106.271 Y124.99 E.01379
G1 X125.821 Y124.99 E.66174
G1 X125.821 Y125.397 E.01379
M73 P58 R1
M73 Q58 S1
G1 X106.271 Y125.397 E.66174
G1 X106.271 Y125.804 E.01379
G1 X125.821 Y125.804 E.66174
G1 X125.821 Y126.212 E.01379
G1 X106.271 Y126.212 E.66174
G1 X106.271 Y126.619 E.01379
M73 P59 R1
M73 Q59 S1
G1 X125.821 Y126.619 E.66174
G1 X125.821 Y127.026 E.01379
G1 X106.087 Y127.026 E.66794
M204 S1000
; stop printing object shape_002_v11.stl id:0 copy 0
; printing object shape_002_v11.stl id:0 copy 1

M104 S240 ; set extruder temp
M109 S240 ; wait for extruder temp

;WIPE_START
G1 F8640
M73 P60 R1
M73 Q60 S1
G1 X109.379 Y127.026 E-.76
;WIPE_END
G1 E-.04 F2100
G1 Z.6 F720
G1 X100.809 Y108.012 F10800
G1 Z.2 F720
G1 E.8 F2100
M204 S800
G1 F1200
G1 X81.076 Y108.012 E.66794
G1 X81.076 Y108.419 E.01379
G1 X100.626 Y108.419 E.66174
G1 X100.626 Y108.826 E.01379
M73 Q61 S1
G1 X81.076 Y108.826 E.66174
G1 X81.076 Y109.233 E.01379
M73 P61 R1
G1 X100.626 Y109.233 E.66174
G1 X100.626 Y109.641 E.01379
G1 X81.076 Y109.641 E.66174
G1 X81.076 Y110.048 E.01379
M73 P62 R1
M73 Q62 S1
G1 X100.626 Y110.048 E.66174
G1 X100.626 Y110.455 E.01379
G1 X81.076 Y110.455 E.66174
G1 X81.076 Y110.863 E.01379
G1 X100.626 Y110.863 E.66174
G1 X100.626 Y111.27 E.01379
M73 P63 R1
M73 Q63 S1
G1 X81.076 Y111.27 E.66174
G1 X81.076 Y111.677 E.01379
G1 X100.626 Y111.677 E.66174
G1 X100.626 Y112.084 E.01379
M73 P64 R1
M73 Q64 S1
G1 X81.076 Y112.084 E.66174
G1 X81.076 Y112.492 E.01379
G1 X100.626 Y112.492 E.66174
G1 X100.626 Y112.899 E.01379
G1 X81.076 Y112.899 E.66174
G1 X81.076 Y113.306 E.01379
M73 P65 R1
M73 Q65 S1
G1 X100.626 Y113.306 E.66174
G1 X100.626 Y113.714 E.01379
G1 X81.076 Y113.714 E.66174
G1 X81.076 Y114.121 E.01379
M73 P66 R1
M73 Q66 S1
G1 X100.626 Y114.121 E.66174
G1 X100.626 Y114.528 E.01379
G1 X81.076 Y114.528 E.66174
G1 X81.076 Y114.935 E.01379
G1 X100.626 Y114.935 E.66174
G1 X100.626 Y115.343 E.01379
M73 P67 R1
M73 Q67 S1
G1 X81.076 Y115.343 E.66174
G1 X81.076 Y115.75 E.01379
G1 X100.626 Y115.75 E.66174
G1 X100.626 Y116.157 E.01379
G1 X81.076 Y116.157 E.66174
M73 Q68 S1
G1 X81.076 Y116.565 E.01379
M73 P68 R1
G1 X100.626 Y116.565 E.66174
G1 X100.626 Y116.972 E.01379
G1 X81.076 Y116.972 E.66174
G1 X81.076 Y117.379 E.01379
M73 P69 R1
M73 Q69 S1
G1 X100.626 Y117.379 E.66174
G1 X100.626 Y117.786 E.01379
G1 X81.076 Y117.786 E.66174
G1 X81.076 Y118.194 E.01379
G1 X100.626 Y118.194 E.66174
G1 X100.626 Y118.601 E.01379
M73 P70 R1
M73 Q70 S1
G1 X81.076 Y118.601 E.66174
G1 X81.076 Y119.008 E.01379
G1 X100.626 Y119.008 E.66174
G1 X100.626 Y119.416 E.01379
M73 P71 R1
M73 Q71 S1
G1 X81.076 Y119.416 E.66174
G1 X81.076 Y119.823 E.01379
G1 X100.626 Y119.823 E.66174
G1 X100.626 Y120.23 E.01379
G1 X81.076 Y120.23 E.66174
G1 X81.076 Y120.637 E.01379
M73 P72 R1
M73 Q72 S1
G1 X100.626 Y120.637 E.66174
G1 X100.626 Y121.045 E.01379
G1 X81.076 Y121.045 E.66174
G1 X81.076 Y121.452 E.01379
M73 Q73 S1
G1 X100.626 Y121.452 E.66174
G1 X100.626 Y121.859 E.01379
M73 P73 R1
G1 X81.076 Y121.859 E.66174
G1 X81.076 Y122.267 E.01379
G1 X100.626 Y122.267 E.66174
G1 X100.626 Y122.674 E.01379
M73 P74 R1
M73 Q74 S1
G1 X81.076 Y122.674 E.66174
G1 X81.076 Y123.081 E.01379
G1 X100.626 Y123.081 E.66174
G1 X100.626 Y123.488 E.01379
G1 X81.076 Y123.488 E.66174
G1 X81.076 Y123.896 E.01379
M73 P75 R1
M73 Q75 S1
G1 X100.626 Y123.896 E.66174
G1 X100.626 Y124.303 E.01379
G1 X81.076 Y124.303 E.66174
G1 X81.076 Y124.71 E.01379
M73 P76 R1
M73 Q76 S1
G1 X100.626 Y124.71 E.66174
G1 X100.626 Y125.118 E.01379
G1 X81.076 Y125.118 E.66174
G1 X81.076 Y125.525 E.01379
G1 X100.626 Y125.525 E.66174
G1 X100.626 Y125.932 E.01379
M73 P77 R1
M73 Q77 S1
G1 X81.076 Y125.932 E.66174
G1 X81.076 Y126.34 E.01379
M73 P77 R0
M73 Q77 S0
G1 X100.626 Y126.34 E.66174
G1 X100.626 Y126.747 E.01379
M73 Q78 S0
G1 X81.076 Y126.747 E.66174
G1 X81.076 Y127.154 E.01379
M73 P78 R0
G1 X100.626 Y127.154 E.66174
G1 X100.626 Y127.561 E.01379
G1 X80.892 Y127.561 E.66794
M204 S1000
; stop printing object shape_002_v11.stl id:0 copy 1
; printing object shape_002_v11.stl id:0 copy 4

M104 S250 ; set extruder temp
M109 S250 ; wait for extruder temp

;WIPE_START
G1 F8640
M73 P79 R0
M73 Q79 S0
G1 X84.184 Y127.561 E-.76
;WIPE_END
G1 E-.04 F2100
G1 Z.6 F720
G1 X73.59 Y107.751 F10800
G1 Z.2 F720
G1 E.8 F2100
M204 S800
G1 F1200
G1 X53.857 Y107.751 E.66794
G1 X53.857 Y108.158 E.01379
G1 X73.407 Y108.158 E.66174
G1 X73.407 Y108.565 E.01379
M73 P80 R0
