; generated by PrusaSlicer 2.4.2+win64 on 2022-09-02 at 14:41:11 UTC

; 

; external perimeters extrusion width = 0.45mm
; perimeters extrusion width = 0.45mm
; infill extrusion width = 0.45mm
; solid infill extrusion width = 0.45mm
; top infill extrusion width = 0.40mm
; first layer extrusion width = 0.45mm

M73 P0 R9
M73 Q0 S9
M201 X1000 Y1000 Z200 E5000 ; sets maximum accelerations, mm/sec^2
M203 X200 Y200 Z12 E120 ; sets maximum feedrates, mm / sec
M204 P1250 R1250 T1250 ; sets acceleration (P, T) and retract acceleration (R), mm/sec^2
M205 X8.00 Y8.00 Z0.40 E4.50 ; sets the jerk limits, mm/sec
M205 S0 T0 ; sets the minimum extruding and travel feed rate, mm/sec
M107
;TYPE:Custom
M862.3 P "MK3S" ; printer model check
M862.1 P0.4 ; nozzle diameter check
M115 U3.10.1 ; tell printer latest fw version
G90 ; use absolute coordinates
M83 ; extruder relative mode
M104 S245 ; set extruder temp
M140 S120 ; set bed temp
M190 S120 ; wait for bed temp
M109 S245 ; wait for extruder temp
G28 W ; home all without mesh bed level
G80 ; mesh bed leveling
G1 Z0.2 F720
G1 Y-3 F1000 ; go outside print area
G92 E0
G1 X60 E9 F1000 ; intro line
G1 X100 E12.5 F1000 ; intro line
G92 E0
M221 S95

; Don't change E values below. Excessive value can damage the printer.

G21 ; set units to millimeters
G90 ; use absolute coordinates
M83 ; use relative distances for extrusion
M900 K0.05 ; Filament gcode LA 1.5
M900 K30 ; Filament gcode LA 1.0
M107
;LAYER_CHANGE
;Z:0.2
;HEIGHT:0.2
;BEFORE_LAYER_CHANGE
G92 E0.0
;0.2


G1 E-.8 F2100
M73 P1 R9
M73 Q1 S9
G1 Z.4 F720
;AFTER_LAYER_CHANGE
;0.2
; printing object shape_001_v11.stl id:0 copy 0
G1 X121.603 Y102.402 F10800
G1 Z.2 F720
G1 E.8 F2100
M204 S800
;TYPE:Perimeter
;WIDTH:0.45
G1 F1320
G1 X122.038 Y101.91 E.02222
G1 X122.572 Y101.474 E.02334
G1 X123.17 Y101.129 E.02334
G1 X123.814 Y100.885 E.02334
G1 X124.49 Y100.747 E.02334
G1 X125.179 Y100.719 E.02334
G1 X125.863 Y100.802 E.02334
G1 X126.525 Y100.994 E.02334
G1 X127.148 Y101.29 E.02334
G1 X127.716 Y101.681 E.02334
G1 X128.213 Y102.159 E.02334
G1 X128.627 Y102.71 E.02334
G1 X128.947 Y103.321 E.02334
G1 X129.166 Y103.975 E.02334
G1 X129.276 Y104.655 E.02334
G1 X129.276 Y105.345 E.02334
G1 X129.166 Y106.025 E.02334
G1 X128.947 Y106.679 E.02334
G1 X128.627 Y107.29 E.02334
G1 X128.213 Y107.841 E.02334
G1 X127.716 Y108.319 E.02334
G1 X127.148 Y108.71 E.02334
G1 X126.525 Y109.006 E.02334
G1 X125.863 Y109.198 E.02334
G1 X125.179 Y109.281 E.02334
G1 X124.49 Y109.253 E.02334
G1 X123.814 Y109.115 E.02334
G1 X123.17 Y108.871 E.02334
G1 X122.572 Y108.526 E.02334
G1 X122.038 Y108.09 E.02334
G1 X121.581 Y107.574 E.02334
G1 X121.213 Y106.991 E.02334
G1 X120.942 Y106.357 E.02334
G1 X120.777 Y105.687 E.02334
G1 X120.722 Y105 E.02334
G1 X120.777 Y104.313 E.02334
G1 X120.942 Y103.643 E.02334
G1 X121.213 Y103.009 E.02334
G1 X121.567 Y102.449 E.02242
M204 S1000
G1 X121.908 Y102.672 F10800
M204 S800
;TYPE:External perimeter
G1 F1320
G1 X122.321 Y102.205 E.02111
G1 X122.804 Y101.81 E.02111
G1 X123.345 Y101.498 E.02111
G1 X123.928 Y101.277 E.02111
G1 X124.539 Y101.153 E.02111
G1 X125.162 Y101.127 E.02111
G1 X125.781 Y101.203 E.02111
G1 X126.38 Y101.376 E.02111
G1 X126.944 Y101.644 E.02111
G1 X127.457 Y101.998 E.02111
G1 X127.907 Y102.43 E.02111
G1 X128.282 Y102.929 E.02111
G1 X128.572 Y103.481 E.02111
G1 X128.769 Y104.072 E.02111
G1 X128.869 Y104.688 E.02111
G1 X128.869 Y105.312 E.02111
G1 X128.769 Y105.928 E.02111
G1 X128.572 Y106.519 E.02111
G1 X128.282 Y107.071 E.02111
G1 X127.907 Y107.57 E.02111
G1 X127.457 Y108.002 E.02111
G1 X126.944 Y108.356 E.02111
G1 X126.38 Y108.624 E.02111
G1 X125.781 Y108.797 E.02111
G1 X125.162 Y108.873 E.02111
G1 X124.539 Y108.847 E.02111
G1 X123.928 Y108.723 E.02111
G1 X123.345 Y108.502 E.02111
G1 X122.804 Y108.19 E.02111
G1 X122.321 Y107.795 E.02111
G1 X121.908 Y107.328 E.02111
G1 X121.574 Y106.801 E.02111
G1 X121.33 Y106.227 E.02111
G1 X121.181 Y105.622 E.02111
G1 X121.13 Y105 E.02111
G1 X121.181 Y104.378 E.02111
G1 X121.33 Y103.773 E.02111
G1 X121.574 Y103.199 E.02111
G1 X121.876 Y102.722 E.01908
M204 S1000
G1 X121.751 Y102.304 F10800
G1 X121.659 Y102.196
M204 S800
;TYPE:Perimeter
G1 F1320
G1 X122.085 Y101.755 E.02074
G1 X122.564 Y101.38 E.02061
G1 X123.092 Y101.076 E.02062
G1 X123.657 Y100.847 E.02062
G1 X124.248 Y100.7 E.02062
G1 X124.854 Y100.636 E.02062
G1 X125.459 Y100.657 E.02051
G1 X126.063 Y100.763 E.02074
G1 X126.642 Y100.952 E.02061
G1 X127.189 Y101.219 E.02062
G1 X127.694 Y101.559 E.02062
G1 X128.147 Y101.967 E.02062
G1 X128.539 Y102.434 E.02062
G1 X128.861 Y102.95 E.02062
G1 X129.109 Y103.507 E.02062
G1 X129.277 Y104.092 E.02062
G1 X129.362 Y104.695 E.02062
G1 X129.362 Y105.305 E.02062
G1 X129.277 Y105.908 E.02062
G1 X129.109 Y106.493 E.02062
G1 X128.861 Y107.05 E.02062
G1 X128.539 Y107.566 E.02062
G1 X128.149 Y108.031 E.02051
G1 X127.694 Y108.441 E.02074
G1 X127.189 Y108.781 E.02061
G1 X126.642 Y109.048 E.02062
G1 X126.062 Y109.237 E.02062
G1 X125.463 Y109.342 E.02062
G1 X124.854 Y109.364 E.02062
G1 X124.248 Y109.3 E.02062
G1 X123.657 Y109.153 E.02062
G1 X123.092 Y108.924 E.02062
G1 X122.564 Y108.62 E.02062
G1 X122.084 Y108.245 E.02062
G1 X121.661 Y107.807 E.02062
G1 X121.303 Y107.314 E.02062
G1 X121.017 Y106.776 E.02062
G1 X120.81 Y106.207 E.02051
G1 X120.682 Y105.607 E.02074
G1 X120.64 Y105 E.02061
G1 X120.682 Y104.392 E.02062
G1 X120.808 Y103.8 E.02051
M73 Q2 S9
G1 X121.017 Y103.224 E.02074
G1 X121.303 Y102.686 E.02061
G1 X121.624 Y102.245 E.01848
M204 S1000
G1 X121.347 Y101.934 F10800
M204 S800
;TYPE:External perimeter
G1 F1320
G1 X121.811 Y101.452 E.02266
G1 X122.336 Y101.042 E.02254
G1 X122.913 Y100.709 E.02255
G1 X123.531 Y100.459 E.02255
G1 X124.177 Y100.298 E.02255
G1 X124.839 Y100.228 E.02255
G1 X125.502 Y100.252 E.02243
G1 X126.161 Y100.367 E.02266
M73 P2 R9
G1 X126.795 Y100.573 E.02254
G1 X127.393 Y100.865 E.02255
G1 X127.946 Y101.238 E.02255
G1 X128.441 Y101.683 E.02255
G1 X128.869 Y102.194 E.02255
G1 X129.222 Y102.759 E.02255
G1 X129.493 Y103.367 E.02255
G1 X129.676 Y104.007 E.02255
G1 X129.769 Y104.667 E.02255
G1 X129.769 Y105.333 E.02255
G1 X129.676 Y105.993 E.02255
G1 X129.493 Y106.633 E.02255
G1 X129.222 Y107.241 E.02255
G1 X128.869 Y107.806 E.02255
G1 X128.443 Y108.314 E.02243
G1 X127.945 Y108.762 E.02266
G1 X127.393 Y109.135 E.02254
G1 X126.795 Y109.427 E.02255
G1 X126.161 Y109.633 E.02255
G1 X125.505 Y109.748 E.02255
G1 X124.839 Y109.772 E.02255
G1 X124.177 Y109.702 E.02255
G1 X123.531 Y109.541 E.02255
G1 X122.913 Y109.291 E.02255
G1 X122.336 Y108.958 E.02255
G1 X121.811 Y108.548 E.02255
G1 X121.349 Y108.069 E.02255
G1 X120.957 Y107.53 E.02255
G1 X120.644 Y106.942 E.02255
G1 X120.418 Y106.319 E.02243
G1 X120.278 Y105.664 E.02266
G1 X120.232 Y105 E.02254
G1 X120.278 Y104.336 E.02255
G1 X120.416 Y103.687 E.02243
G1 X120.644 Y103.058 E.02266
G1 X120.957 Y102.47 E.02254
G1 X121.311 Y101.982 E.0204
M204 S1000
G1 X121.741 Y102.003 F10800
; stop printing object shape_001_v11.stl id:0 copy 0
;LAYER_CHANGE
;Z:0.4
;HEIGHT:0.2
;BEFORE_LAYER_CHANGE
G92 E0.0
;0.4


;WIPE_START
G1 F8640
G1 X121.811 Y101.452 E-.16833
G1 X122.336 Y101.042 E-.15379
G1 X122.913 Y100.709 E-.1538
G1 X123.531 Y100.459 E-.15381
G1 X124.078 Y100.323 E-.13027
;WIPE_END
G1 E-.04 F2100
G1 Z.6 F720
;AFTER_LAYER_CHANGE
;0.4
; printing object shape_001_v11.stl id:0 copy 0
G1 X124.523 Y100.746 F10800
G1 Z.4 F720
G1 E.8 F2100
M204 S800
;TYPE:Perimeter
G1 F1320
G1 X125.169 Y100.72 E.0219
G1 X125.862 Y100.802 E.02363
G1 X126.525 Y100.994 E.02336
G1 X127.148 Y101.29 E.02334
G1 X127.716 Y101.681 E.02334
G1 X128.213 Y102.159 E.02334
G1 X128.627 Y102.71 E.02334
G1 X128.947 Y103.321 E.02334
G1 X129.166 Y103.975 E.02334
G1 X129.276 Y104.655 E.02334
G1 X129.276 Y105.345 E.02334
G1 X129.166 Y106.025 E.02334
G1 X128.947 Y106.679 E.02334
G1 X128.627 Y107.29 E.02334
G1 X128.213 Y107.841 E.02334
G1 X127.716 Y108.319 E.02334
G1 X127.148 Y108.71 E.02334
G1 X126.534 Y109.002 E.02301
G1 X125.864 Y109.197 E.02363
G1 X125.179 Y109.281 E.02336
G1 X124.49 Y109.253 E.02334
G1 X123.814 Y109.115 E.02334
G1 X123.17 Y108.871 E.02334
G1 X122.572 Y108.526 E.02334
G1 X122.038 Y108.09 E.02334
G1 X121.581 Y107.574 E.02334
G1 X121.213 Y106.991 E.02334
G1 X120.946 Y106.365 E.02301
G1 X120.777 Y105.688 E.02363
G1 X120.722 Y105 E.02336
G1 X120.777 Y104.313 E.02334
G1 X120.94 Y103.653 E.02301
G1 X121.212 Y103.01 E.02363
G1 X121.581 Y102.426 E.02336
G1 X122.038 Y101.91 E.02334
G1 X122.572 Y101.474 E.02334
G1 X123.17 Y101.129 E.02334
G1 X123.814 Y100.885 E.02334
G1 X124.463 Y100.753 E.02242
M204 S1000
G1 X124.539 Y101.153 F10800
M204 S800
;TYPE:External perimeter
G1 F1320
G1 X125.153 Y101.128 E.02081
G1 X125.781 Y101.203 E.02141
G1 X126.38 Y101.376 E.02112
G1 X126.944 Y101.644 E.02111
G1 X127.457 Y101.998 E.02111
G1 X127.907 Y102.43 E.02111
G1 X128.282 Y102.929 E.02111
G1 X128.572 Y103.481 E.02111
M73 P2 R8
G1 X128.769 Y104.072 E.02111
G1 X128.869 Y104.688 E.02111
G1 X128.869 Y105.312 E.02111
G1 X128.769 Y105.928 E.02111
G1 X128.572 Y106.519 E.02111
G1 X128.282 Y107.071 E.02111
G1 X127.907 Y107.57 E.02111
G1 X127.457 Y108.002 E.02111
G1 X126.944 Y108.356 E.02111
G1 X126.389 Y108.62 E.02081
G1 X125.782 Y108.797 E.02141
G1 X125.162 Y108.873 E.02112
G1 X124.539 Y108.847 E.02111
G1 X123.928 Y108.723 E.02111
G1 X123.345 Y108.502 E.02111
M73 Q2 S8
G1 X122.804 Y108.19 E.02111
G1 X122.321 Y107.795 E.02111
G1 X121.908 Y107.328 E.02111
G1 X121.574 Y106.801 E.02111
G1 X121.333 Y106.236 E.02081
G1 X121.181 Y105.622 E.02141
G1 X121.13 Y105 E.02112
G1 X121.181 Y104.378 E.02111
G1 X121.328 Y103.781 E.02081
G1 X121.574 Y103.199 E.02141
G1 X121.908 Y102.672 E.02112
G1 X122.321 Y102.205 E.02111
G1 X122.804 Y101.81 E.02111
G1 X123.345 Y101.498 E.02111
G1 X123.928 Y101.277 E.02111
G1 X124.48 Y101.165 E.01908
M204 S1000
G1 X124.696 Y100.785 F10800
G1 X124.248 Y100.7
M204 S800
;TYPE:Perimeter
G1 F1320
G1 X124.854 Y100.636 E.02062
G1 X125.453 Y100.657 E.02029
G1 X126.063 Y100.764 E.02097
G1 X126.642 Y100.952 E.0206
G1 X127.189 Y101.219 E.02062
G1 X127.686 Y101.554 E.02029
G1 X128.147 Y101.967 E.02097
G1 X128.539 Y102.434 E.0206
G1 X128.861 Y102.95 E.02062
G1 X129.109 Y103.507 E.02062
G1 X129.277 Y104.092 E.02062
G1 X129.362 Y104.695 E.02062
G1 X129.362 Y105.305 E.02062
G1 X129.277 Y105.908 E.02062
G1 X129.112 Y106.484 E.02029
G1 X128.861 Y107.05 E.02097
G1 X128.539 Y107.566 E.0206
G1 X128.147 Y108.033 E.02062
G1 X127.702 Y108.434 E.02029
G1 X127.189 Y108.782 E.02097
G1 X126.642 Y109.048 E.0206
G1 X126.062 Y109.237 E.02062
G1 X125.462 Y109.342 E.02062
G1 X124.854 Y109.364 E.02062
G1 X124.248 Y109.3 E.02062
G1 X123.657 Y109.153 E.02062
G1 X123.092 Y108.924 E.02062
G1 X122.564 Y108.62 E.02062
G1 X122.084 Y108.245 E.02062
G1 X121.661 Y107.807 E.02062
G1 X121.309 Y107.322 E.02029
G1 X121.017 Y106.775 E.02097
G1 X120.809 Y106.204 E.0206
G1 X120.682 Y105.608 E.02062
G1 X120.64 Y105 E.02062
G1 X120.682 Y104.392 E.02062
G1 X120.807 Y103.806 E.02029
G1 X121.018 Y103.223 E.02097
G1 X121.303 Y102.686 E.0206
G1 X121.655 Y102.201 E.02029
G1 X122.085 Y101.755 E.02097
G1 X122.564 Y101.38 E.0206
G1 X123.092 Y101.076 E.02062
G1 X123.657 Y100.847 E.02062
G1 X124.19 Y100.714 E.01859
M204 S1000
G1 X124.177 Y100.298 F10800
M204 S800
;TYPE:External perimeter
M73 Q3 S8
G1 F1320
G1 X124.839 Y100.228 E.02255
G1 X125.495 Y100.251 E.0222
G1 X126.161 Y100.367 E.0229
G1 X126.795 Y100.573 E.02254
G1 X127.393 Y100.865 E.02255
G1 X127.937 Y101.232 E.0222
G1 X128.441 Y101.684 E.0229
G1 X128.869 Y102.194 E.02254
G1 X129.222 Y102.759 E.02255
G1 X129.493 Y103.367 E.02255
G1 X129.676 Y104.007 E.02255
G1 X129.769 Y104.667 E.02255
M73 P3 R8
G1 X129.769 Y105.333 E.02255
G1 X129.676 Y105.993 E.02255
G1 X129.495 Y106.623 E.0222
G1 X129.222 Y107.242 E.0229
G1 X128.869 Y107.806 E.02254
G1 X128.441 Y108.317 E.02255
G1 X127.953 Y108.755 E.0222
G1 X127.393 Y109.135 E.0229
G1 X126.795 Y109.427 E.02254
G1 X126.161 Y109.633 E.02255
G1 X125.505 Y109.748 E.02255
G1 X124.839 Y109.772 E.02255
G1 X124.177 Y109.702 E.02255
G1 X123.531 Y109.541 E.02255
G1 X122.913 Y109.291 E.02255
G1 X122.336 Y108.958 E.02255
G1 X121.811 Y108.548 E.02255
G1 X121.349 Y108.069 E.02255
G1 X120.963 Y107.538 E.0222
G1 X120.644 Y106.942 E.0229
G1 X120.417 Y106.316 E.02254
G1 X120.278 Y105.664 E.02255
G1 X120.232 Y105 E.02255
G1 X120.278 Y104.336 E.02255
G1 X120.414 Y103.694 E.0222
G1 X120.645 Y103.058 E.0229
G1 X120.957 Y102.47 E.02254
G1 X121.343 Y101.939 E.0222
G1 X121.812 Y101.452 E.0229
G1 X122.336 Y101.042 E.02254
G1 X122.913 Y100.709 E.02255
G1 X123.531 Y100.459 E.02255
G1 X124.119 Y100.313 E.02052
M204 S1000
G1 X124.434 Y100.605 F10800
; stop printing object shape_001_v11.stl id:0 copy 0
;LAYER_CHANGE
;Z:0.6
;HEIGHT:0.2
;BEFORE_LAYER_CHANGE
G92 E0.0
;0.6


;WIPE_START
G1 F8640
G1 X124.839 Y100.228 E-.16754
G1 X125.495 Y100.251 E-.15144
G1 X126.161 Y100.367 E-.1562
G1 X126.795 Y100.573 E-.15375
G1 X127.305 Y100.822 E-.13108
;WIPE_END
G1 E-.04 F2100
G1 Z.8 F720
;AFTER_LAYER_CHANGE
;0.6
; printing object shape_001_v11.stl id:0 copy 0
G1 X127.095 Y101.265 F10800
G1 Z.6 F720
G1 E.8 F2100
M204 S800
;TYPE:Perimeter
G1 F1320
G1 X127.716 Y101.681 E.02531
G1 X128.213 Y102.159 E.02334
G1 X128.627 Y102.71 E.02334
G1 X128.947 Y103.321 E.02334
G1 X129.166 Y103.975 E.02334
G1 X129.276 Y104.655 E.02334
G1 X129.276 Y105.345 E.02334
G1 X129.166 Y106.025 E.02334
G1 X128.952 Y106.664 E.0228
G1 X128.628 Y107.289 E.02383
G1 X128.213 Y107.841 E.02338
G1 X127.716 Y108.319 E.02334
G1 X127.148 Y108.71 E.02334
G1 X126.525 Y109.006 E.02334
G1 X125.863 Y109.198 E.02334
G1 X125.179 Y109.281 E.02334
G1 X124.49 Y109.253 E.02334
G1 X123.814 Y109.115 E.02334
G1 X123.17 Y108.871 E.02334
G1 X122.572 Y108.526 E.02334
G1 X122.038 Y108.09 E.02334
G1 X121.581 Y107.574 E.02334
G1 X121.213 Y106.991 E.02334
G1 X120.942 Y106.357 E.02334
G1 X120.777 Y105.687 E.02334
G1 X120.722 Y105 E.02334
G1 X120.777 Y104.313 E.02334
G1 X120.942 Y103.643 E.02334
G1 X121.206 Y103.024 E.0228
G1 X121.58 Y102.427 E.02383
G1 X122.038 Y101.91 E.02338
G1 X122.572 Y101.474 E.02334
G1 X123.17 Y101.129 E.02334
G1 X123.814 Y100.885 E.02334
G1 X124.49 Y100.747 E.02334
G1 X125.163 Y100.72 E.0228
G1 X125.862 Y100.802 E.02383
G1 X126.525 Y100.994 E.02338
G1 X127.041 Y101.239 E.01931
M204 S1000
G1 X126.92 Y101.632 F10800
M204 S800
;TYPE:External perimeter
G1 F1320
G1 X127.457 Y101.998 E.02199
G1 X127.907 Y102.43 E.02111
G1 X128.282 Y102.929 E.02111
G1 X128.572 Y103.481 E.02111
G1 X128.769 Y104.072 E.02111
G1 X128.869 Y104.688 E.02111
G1 X128.869 Y105.312 E.02111
G1 X128.769 Y105.928 E.02111
G1 X128.576 Y106.505 E.0206
G1 X128.282 Y107.071 E.0216
G1 X127.907 Y107.57 E.02113
G1 X127.457 Y108.002 E.02111
G1 X126.944 Y108.356 E.02111
G1 X126.38 Y108.624 E.02111
G1 X125.781 Y108.797 E.02111
G1 X125.162 Y108.873 E.02111
G1 X124.539 Y108.847 E.02111
G1 X123.928 Y108.723 E.02111
G1 X123.345 Y108.502 E.02111
G1 X122.804 Y108.19 E.02111
G1 X122.321 Y107.795 E.02111
G1 X121.908 Y107.328 E.02111
G1 X121.574 Y106.801 E.02111
G1 X121.33 Y106.227 E.02111
G1 X121.181 Y105.622 E.02111
G1 X121.13 Y105 E.02111
G1 X121.181 Y104.378 E.02111
G1 X121.33 Y103.773 E.02111
G1 X121.568 Y103.213 E.0206
G1 X121.907 Y102.672 E.0216
G1 X122.321 Y102.205 E.02113
G1 X122.804 Y101.81 E.02111
G1 X123.345 Y101.498 E.02111
G1 X123.928 Y101.277 E.02111
G1 X124.539 Y101.153 E.02111
G1 X125.147 Y101.128 E.0206
G1 X125.781 Y101.202 E.0216
G1 X126.38 Y101.376 E.02113
G1 X126.866 Y101.607 E.0182
M204 S1000
G1 X127.266 Y101.431 F10800
G1 X127.135 Y101.192
M204 S800
;TYPE:Perimeter
G1 F1320
G1 X127.694 Y101.559 E.02264
G1 X128.147 Y101.967 E.02062
G1 X128.539 Y102.434 E.02062
G1 X128.861 Y102.95 E.02062
G1 X129.109 Y103.507 E.02062
G1 X129.277 Y104.092 E.02062
G1 X129.362 Y104.695 E.02062
G1 X129.362 Y105.305 E.02062
G1 X129.277 Y105.908 E.02062
G1 X129.109 Y106.493 E.02062
G1 X128.861 Y107.05 E.02062
G1 X128.539 Y107.566 E.02062
G1 X128.147 Y108.033 E.02062
G1 X127.694 Y108.441 E.02062
G1 X127.189 Y108.781 E.02062
G1 X126.642 Y109.048 E.02062
G1 X126.062 Y109.237 E.02062
G1 X125.463 Y109.342 E.02062
G1 X124.854 Y109.364 E.02062
G1 X124.248 Y109.3 E.02062
