; generated by PrusaSlicer 2.4.2+win64 on 2022-09-02 at 15:38:03 UTC

; 

; external perimeters extrusion width = 0.45mm
; perimeters extrusion width = 0.45mm
; infill extrusion width = 0.45mm
; solid infill extrusion width = 0.45mm
; top infill extrusion width = 0.40mm
; first layer extrusion width = 0.45mm

M73 P0 R30
M73 Q0 S30
M201 X1000 Y1000 Z200 E5000 ; sets maximum accelerations, mm/sec^2
M203 X200 Y200 Z12 E120 ; sets maximum feedrates, mm / sec
M204 P1250 R1250 T1250 ; sets acceleration (P, T) and retract acceleration (R), mm/sec^2
M205 X8.00 Y8.00 Z0.40 E4.50 ; sets the jerk limits, mm/sec
M205 S0 T0 ; sets the minimum extruding and travel feed rate, mm/sec
M107
;TYPE:Custom
M862.3 P "MK3S" ; printer model check
M862.1 P0.4 ; nozzle diameter check
M115 U3.10.1 ; tell printer latest fw version
G90 ; use absolute coordinates
M83 ; extruder relative mode
M104 S190 ; set extruder temp
M140 S25 ; set bed temp
M190 S25 ; wait for bed temp
M109 S190 ; wait for extruder temp
G28 W ; home all without mesh bed level
G80 ; mesh bed leveling
G1 Z0.2 F720
G1 Y-3 F1000 ; go outside print area
G92 E0
G1 X60 E9 F1000 ; intro line
G1 X100 E12.5 F1000 ; intro line
G92 E0
M221 S95

; Don't change E values below. Excessive value can damage the printer.

G21 ; set units to millimeters
G90 ; use absolute coordinates
M83 ; use relative distances for extrusion
M900 K0.05 ; Filament gcode LA 1.5
M900 K30 ; Filament gcode LA 1.0
M107
;LAYER_CHANGE
;Z:0.2
;HEIGHT:0.2
;BEFORE_LAYER_CHANGE
G92 E0.0
;0.2


G1 E-.8 F2100
G1 Z.4 F720
;AFTER_LAYER_CHANGE
;0.2
; printing object shape_001_v11.stl id:0 copy 0
G1 X113.609 Y95.479 F10800
G1 Z.2 F720
G1 E.8 F2100
M204 S800
;TYPE:Perimeter
;WIDTH:0.45
G1 F1200
G1 X114.044 Y94.987 E.02222
G1 X114.579 Y94.551 E.02334
G1 X115.176 Y94.207 E.02334
G1 X115.82 Y93.962 E.02334
G1 X116.496 Y93.824 E.02334
G1 X117.185 Y93.796 E.02334
G1 X117.869 Y93.88 E.02334
G1 X118.531 Y94.071 E.02334
G1 X119.154 Y94.367 E.02334
G1 X119.722 Y94.759 E.02334
G1 X120.219 Y95.236 E.02334
G1 X120.633 Y95.787 E.02334
G1 X120.953 Y96.398 E.02334
G1 X121.172 Y97.052 E.02334
G1 X121.282 Y97.732 E.02334
G1 X121.282 Y98.422 E.02334
G1 X121.172 Y99.102 E.02334
G1 X120.953 Y99.756 E.02334
G1 X120.633 Y100.367 E.02334
G1 X120.219 Y100.918 E.02334
G1 X119.722 Y101.396 E.02334
G1 X119.154 Y101.787 E.02334
G1 X118.531 Y102.083 E.02334
G1 X117.869 Y102.275 E.02334
G1 X117.185 Y102.358 E.02334
G1 X116.496 Y102.33 E.02334
G1 X115.82 Y102.192 E.02334
G1 X115.176 Y101.948 E.02334
G1 X114.579 Y101.603 E.02334
G1 X114.044 Y101.167 E.02334
G1 X113.587 Y100.651 E.02334
G1 X113.219 Y100.068 E.02334
G1 X112.949 Y99.434 E.02334
G1 X112.784 Y98.764 E.02334
G1 X112.728 Y98.077 E.02334
G1 X112.784 Y97.39 E.02334
G1 X112.949 Y96.72 E.02334
G1 X113.219 Y96.086 E.02334
G1 X113.573 Y95.526 E.02242
M204 S1000
G1 X113.914 Y95.749 F10800
M204 S800
;TYPE:External perimeter
G1 F1200
G1 X114.327 Y95.282 E.02111
G1 X114.811 Y94.887 E.02111
G1 X115.351 Y94.576 E.02111
G1 X115.934 Y94.354 E.02111
G1 X116.545 Y94.23 E.02111
G1 X117.168 Y94.204 E.02111
G1 X117.787 Y94.28 E.02111
G1 X118.387 Y94.453 E.02111
G1 X118.95 Y94.721 E.02111
G1 X119.463 Y95.075 E.02111
G1 X119.913 Y95.507 E.02111
G1 X120.288 Y96.006 E.02111
G1 X120.578 Y96.558 E.02111
G1 X120.775 Y97.15 E.02111
G1 X120.875 Y97.765 E.02111
G1 X120.875 Y98.389 E.02111
G1 X120.775 Y99.005 E.02111
G1 X120.578 Y99.596 E.02111
G1 X120.288 Y100.149 E.02111
G1 X119.913 Y100.647 E.02111
G1 X119.463 Y101.079 E.02111
G1 X118.95 Y101.434 E.02111
G1 X118.387 Y101.701 E.02111
G1 X117.787 Y101.874 E.02111
G1 X117.168 Y101.95 E.02111
G1 X116.545 Y101.925 E.02111
G1 X115.934 Y101.8 E.02111
G1 X115.351 Y101.579 E.02111
G1 X114.811 Y101.267 E.02111
G1 X114.327 Y100.872 E.02111
G1 X113.914 Y100.405 E.02111
G1 X113.58 Y99.878 E.02111
G1 X113.336 Y99.304 E.02111
G1 X113.187 Y98.699 E.02111
G1 X113.136 Y98.077 E.02111
G1 X113.187 Y97.455 E.02111
G1 X113.336 Y96.85 E.02111
G1 X113.58 Y96.276 E.02111
G1 X113.882 Y95.799 E.01908
M204 S1000
G1 X113.757 Y95.381 F10800
G1 X113.665 Y95.273
M204 S800
;TYPE:Perimeter
G1 F1200
G1 X114.091 Y94.832 E.02074
G1 X114.571 Y94.457 E.02061
G1 X115.098 Y94.153 E.02062
G1 X115.663 Y93.924 E.02062
G1 X116.254 Y93.777 E.02062
G1 X116.86 Y93.713 E.02062
G1 X117.465 Y93.734 E.02051
G1 X118.069 Y93.84 E.02074
G1 X118.648 Y94.029 E.02061
G1 X119.195 Y94.296 E.02062
G1 X119.7 Y94.636 E.02062
G1 X120.153 Y95.044 E.02062
G1 X120.545 Y95.511 E.02062
G1 X120.867 Y96.027 E.02062
G1 X121.115 Y96.584 E.02062
G1 X121.283 Y97.169 E.02062
G1 X121.368 Y97.772 E.02062
G1 X121.368 Y98.382 E.02062
G1 X121.283 Y98.985 E.02062
G1 X121.115 Y99.57 E.02062
G1 X120.867 Y100.127 E.02062
G1 X120.545 Y100.644 E.02062
G1 X120.155 Y101.108 E.02051
G1 X119.7 Y101.518 E.02074
G1 X119.195 Y101.858 E.02061
G1 X118.648 Y102.126 E.02062
G1 X118.069 Y102.314 E.02062
G1 X117.469 Y102.42 E.02062
G1 X116.86 Y102.441 E.02062
G1 X116.254 Y102.377 E.02062
G1 X115.663 Y102.23 E.02062
G1 X115.098 Y102.002 E.02062
G1 X114.571 Y101.697 E.02062
G1 X114.091 Y101.322 E.02062
G1 X113.667 Y100.884 E.02062
G1 X113.309 Y100.391 E.02062
G1 X113.023 Y99.853 E.02062
G1 X112.816 Y99.284 E.02051
G1 X112.688 Y98.685 E.02074
G1 X112.646 Y98.077 E.02061
G1 X112.688 Y97.469 E.02062
G1 X112.814 Y96.877 E.02051
G1 X113.023 Y96.301 E.02074
G1 X113.309 Y95.763 E.02061
G1 X113.63 Y95.322 E.01848
M204 S1000
G1 X113.353 Y95.011 F10800
M204 S800
;TYPE:External perimeter
G1 F1200
G1 X113.818 Y94.529 E.02266
G1 X114.342 Y94.119 E.02254
G1 X114.919 Y93.786 E.02255
G1 X115.537 Y93.536 E.02255
G1 X116.183 Y93.375 E.02255
G1 X116.846 Y93.306 E.02255
G1 X117.508 Y93.329 E.02243
G1 X118.167 Y93.444 E.02266
G1 X118.801 Y93.65 E.02254
G1 X119.399 Y93.942 E.02255
G1 X119.952 Y94.315 E.02255
G1 X120.447 Y94.76 E.02255
G1 X120.875 Y95.271 E.02255
G1 X121.228 Y95.836 E.02255
G1 X121.499 Y96.444 E.02255
G1 X121.682 Y97.084 E.02255
G1 X121.775 Y97.744 E.02255
G1 X121.775 Y98.41 E.02255
G1 X121.682 Y99.07 E.02255
G1 X121.499 Y99.71 E.02255
G1 X121.228 Y100.319 E.02255
G1 X120.875 Y100.883 E.02255
G1 X120.449 Y101.391 E.02243
G1 X119.952 Y101.839 E.02266
G1 X119.399 Y102.212 E.02254
G1 X118.801 Y102.504 E.02255
G1 X118.167 Y102.71 E.02255
G1 X117.511 Y102.825 E.02255
G1 X116.846 Y102.849 E.02255
G1 X116.183 Y102.779 E.02255
G1 X115.537 Y102.618 E.02255
G1 X114.919 Y102.368 E.02255
G1 X114.342 Y102.035 E.02255
G1 X113.817 Y101.625 E.02255
G1 X113.355 Y101.146 E.02255
G1 X112.963 Y100.607 E.02255
G1 X112.651 Y100.019 E.02255
G1 X112.424 Y99.396 E.02243
G1 X112.284 Y98.741 E.02266
G1 X112.238 Y98.077 E.02254
G1 X112.284 Y97.413 E.02255
G1 X112.422 Y96.764 E.02243
G1 X112.651 Y96.135 E.02266
G1 X112.963 Y95.547 E.02254
G1 X113.317 Y95.059 E.0204
M204 S1000
G1 X113.747 Y95.08 F10800
; stop printing object shape_001_v11.stl id:0 copy 0
; printing object shape_001_v11.stl id:0 copy 1
;WIPE_START
G1 F8640
G1 X113.818 Y94.529 E-.16833
G1 X114.342 Y94.119 E-.15379
G1 X114.919 Y93.786 E-.1538
G1 X115.537 Y93.536 E-.15381
G1 X116.084 Y93.4 E-.13027
;WIPE_END
G1 E-.04 F2100
G1 Z.6 F720
G1 X128.769 Y97.423 F10800
G1 Z.2 F720
G1 E.8 F2100
M204 S800
;TYPE:Perimeter
G1 F1200
G1 X128.936 Y96.72 E.02444
G1 X129.207 Y96.086 E.02334
G1 X129.575 Y95.503 E.02334
G1 X130.032 Y94.987 E.02334
G1 X130.566 Y94.551 E.02334
G1 X131.163 Y94.207 E.02334
G1 X131.808 Y93.962 E.02334
G1 X132.484 Y93.824 E.02334
G1 X133.172 Y93.796 E.02334
G1 X133.857 Y93.88 E.02334
G1 X134.519 Y94.071 E.02334
G1 X135.142 Y94.367 E.02334
G1 X135.709 Y94.759 E.02334
G1 X136.207 Y95.236 E.02334
G1 X136.621 Y95.787 E.02334
G1 X136.941 Y96.398 E.02334
G1 X137.16 Y97.052 E.02334
G1 X137.27 Y97.732 E.02334
G1 X137.27 Y98.422 E.02334
G1 X137.16 Y99.102 E.02334
G1 X136.941 Y99.756 E.02334
G1 X136.621 Y100.367 E.02334
G1 X136.207 Y100.918 E.02334
G1 X135.709 Y101.396 E.02334
G1 X135.142 Y101.787 E.02334
G1 X134.519 Y102.083 E.02334
G1 X133.857 Y102.275 E.02334
G1 X133.173 Y102.358 E.02334
G1 X132.484 Y102.33 E.02334
G1 X131.808 Y102.192 E.02334
G1 X131.163 Y101.948 E.02334
G1 X130.566 Y101.603 E.02334
G1 X130.032 Y101.167 E.02334
G1 X129.575 Y100.651 E.02334
G1 X129.207 Y100.068 E.02334
G1 X128.936 Y99.434 E.02334
G1 X128.771 Y98.764 E.02334
G1 X128.716 Y98.077 E.02334
G1 X128.764 Y97.482 E.02019
M204 S1000
G1 X129.174 Y97.455 F10800
M204 S800
;TYPE:External perimeter
G1 F1200
G1 X129.324 Y96.85 E.02111
G1 X129.568 Y96.276 E.02111
G1 X129.902 Y95.749 E.02111
G1 X130.315 Y95.282 E.02111
G1 X130.798 Y94.887 E.02111
G1 X131.338 Y94.576 E.02111
G1 X131.922 Y94.354 E.02111
G1 X132.533 Y94.23 E.02111
G1 X133.156 Y94.204 E.02111
G1 X133.775 Y94.28 E.02111
G1 X134.374 Y94.453 E.02111
G1 X134.938 Y94.721 E.02111
G1 X135.451 Y95.075 E.02111
G1 X135.901 Y95.507 E.02111
G1 X136.276 Y96.006 E.02111
G1 X136.566 Y96.558 E.02111
G1 X136.763 Y97.15 E.02111
G1 X136.863 Y97.765 E.02111
G1 X136.863 Y98.389 E.02111
G1 X136.763 Y99.005 E.02111
G1 X136.566 Y99.596 E.02111
G1 X136.276 Y100.149 E.02111
G1 X135.901 Y100.647 E.02111
G1 X135.451 Y101.079 E.02111
G1 X134.938 Y101.434 E.02111
G1 X134.374 Y101.701 E.02111
G1 X133.775 Y101.874 E.02111
G1 X133.156 Y101.95 E.02111
G1 X132.533 Y101.925 E.02111
G1 X131.922 Y101.8 E.02111
G1 X131.338 Y101.579 E.02111
G1 X130.798 Y101.267 E.02111
G1 X130.315 Y100.872 E.02111
G1 X129.902 Y100.405 E.02111
G1 X129.568 Y99.878 E.02111
G1 X129.324 Y99.304 E.02111
G1 X129.174 Y98.699 E.02111
G1 X129.124 Y98.077 E.02111
G1 X129.17 Y97.515 E.01908
M204 S1000
G1 X128.865 Y97.202 F10800
G1 X128.701 Y97.355
M204 S800
;TYPE:Perimeter
G1 F1200
G1 X128.802 Y96.877 E.01654
G1 X129.011 Y96.301 E.02074
G1 X129.297 Y95.763 E.02061
G1 X129.653 Y95.273 E.02051
G1 X130.078 Y94.832 E.02074
G1 X130.558 Y94.457 E.02061
G1 X131.086 Y94.153 E.02062
G1 X131.651 Y93.924 E.02062
G1 X132.242 Y93.777 E.02062
G1 X132.848 Y93.713 E.02062
G1 X133.453 Y93.734 E.02051
G1 X134.057 Y93.84 E.02074
G1 X134.636 Y94.029 E.02061
G1 X135.183 Y94.296 E.02062
G1 X135.688 Y94.636 E.02062
G1 X136.141 Y95.044 E.02062
G1 X136.532 Y95.511 E.02062
G1 X136.855 Y96.027 E.02062
G1 X137.103 Y96.584 E.02062
G1 X137.271 Y97.169 E.02062
G1 X137.356 Y97.772 E.02062
G1 X137.356 Y98.382 E.02062
G1 X137.271 Y98.985 E.02062
G1 X137.103 Y99.57 E.02062
G1 X136.855 Y100.127 E.02062
G1 X136.532 Y100.644 E.02062
G1 X136.143 Y101.108 E.02051
G1 X135.688 Y101.518 E.02074
G1 X135.183 Y101.858 E.02061
G1 X134.636 Y102.126 E.02062
G1 X134.056 Y102.314 E.02062
G1 X133.456 Y102.42 E.02062
G1 X132.848 Y102.441 E.02062
G1 X132.242 Y102.377 E.02062
G1 X131.651 Y102.23 E.02062
G1 X131.086 Y102.002 E.02062
G1 X130.558 Y101.697 E.02062
G1 X130.078 Y101.322 E.02062
G1 X129.655 Y100.884 E.02062
G1 X129.297 Y100.391 E.02062
G1 X129.011 Y99.853 E.02062
G1 X128.804 Y99.284 E.02051
G1 X128.676 Y98.685 E.02074
G1 X128.634 Y98.077 E.02061
G1 X128.688 Y97.413 E.02254
M204 S1000
G1 X128.302 Y97.27 F10800
M204 S800
;TYPE:External perimeter
G1 F1200
G1 X128.41 Y96.764 E.0175
G1 X128.638 Y96.135 E.02266
G1 X128.951 Y95.547 E.02254
G1 X129.341 Y95.011 E.02243
G1 X129.805 Y94.529 E.02266
G1 X130.33 Y94.119 E.02254
G1 X130.907 Y93.786 E.02255
G1 X131.525 Y93.536 E.02255
G1 X132.171 Y93.375 E.02255
G1 X132.833 Y93.306 E.02255
G1 X133.496 Y93.329 E.02243
G1 X134.155 Y93.444 E.02266
G1 X134.789 Y93.65 E.02254
G1 X135.387 Y93.942 E.02255
G1 X135.939 Y94.315 E.02255
G1 X136.434 Y94.76 E.02255
G1 X136.863 Y95.271 E.02255
G1 X137.216 Y95.836 E.02255
G1 X137.487 Y96.444 E.02255
G1 X137.67 Y97.084 E.02255
G1 X137.763 Y97.744 E.02255
G1 X137.763 Y98.41 E.02255
G1 X137.67 Y99.07 E.02255
M73 Q1 S30
G1 X137.487 Y99.71 E.02255
G1 X137.216 Y100.319 E.02255
G1 X136.863 Y100.883 E.02255
G1 X136.437 Y101.391 E.02243
G1 X135.939 Y101.839 E.02266
G1 X135.387 Y102.212 E.02254
G1 X134.789 Y102.504 E.02255
G1 X134.155 Y102.71 E.02255
G1 X133.499 Y102.825 E.02255
G1 X132.833 Y102.849 E.02255
M73 P1 R30
G1 X132.171 Y102.779 E.02255
G1 X131.525 Y102.618 E.02255
G1 X130.907 Y102.368 E.02255
G1 X130.33 Y102.035 E.02255
G1 X129.805 Y101.625 E.02255
G1 X129.343 Y101.146 E.02255
G1 X128.951 Y100.607 E.02255
G1 X128.638 Y100.019 E.02255
G1 X128.412 Y99.396 E.02243
G1 X128.272 Y98.741 E.02266
G1 X128.226 Y98.077 E.02254
G1 X128.29 Y97.329 E.02543
M204 S1000
G1 X128.674 Y97.123 F10800
; stop printing object shape_001_v11.stl id:0 copy 1
; printing object shape_001_v11.stl id:0 copy 2
;WIPE_START
G1 F8640
G1 X128.41 Y96.764 E-.1332
G1 X128.638 Y96.135 E-.1546
G1 X128.951 Y95.547 E-.15379
G1 X129.341 Y95.011 E-.15301
G1 X129.805 Y94.529 E-.1546
G1 X129.842 Y94.5 E-.01079
;WIPE_END
G1 E-.04 F2100
G1 Z.6 F720
G1 X125.83 Y107.721 F10800
G1 Z.2 F720
G1 E.8 F2100
M204 S800
;TYPE:Perimeter
G1 F1200
G1 X126.525 Y107.917 E.02444
G1 X127.148 Y108.213 E.02334
G1 X127.716 Y108.604 E.02334
G1 X128.213 Y109.082 E.02334
G1 X128.627 Y109.633 E.02334
G1 X128.947 Y110.244 E.02334
G1 X129.166 Y110.898 E.02334
G1 X129.276 Y111.578 E.02334
G1 X129.276 Y112.268 E.02334
G1 X129.166 Y112.948 E.02334
G1 X128.947 Y113.602 E.02334
G1 X128.627 Y114.213 E.02334
G1 X128.213 Y114.764 E.02334
G1 X127.716 Y115.241 E.02334
G1 X127.148 Y115.633 E.02334
G1 X126.525 Y115.929 E.02334
G1 X125.863 Y116.12 E.02334
G1 X125.179 Y116.204 E.02334
G1 X124.49 Y116.176 E.02334
G1 X123.814 Y116.038 E.02334
G1 X123.17 Y115.793 E.02334
G1 X122.572 Y115.449 E.02334
G1 X122.038 Y115.013 E.02334
G1 X121.581 Y114.497 E.02334
G1 X121.213 Y113.914 E.02334
G1 X120.942 Y113.28 E.02334
G1 X120.777 Y112.61 E.02334
G1 X120.722 Y111.923 E.02334
G1 X120.777 Y111.236 E.02334
G1 X120.942 Y110.566 E.02334
G1 X121.213 Y109.932 E.02334
G1 X121.581 Y109.349 E.02334
G1 X122.038 Y108.833 E.02334
G1 X122.572 Y108.397 E.02334
G1 X123.17 Y108.052 E.02334
G1 X123.814 Y107.808 E.02334
G1 X124.49 Y107.67 E.02334
G1 X125.179 Y107.642 E.02334
G1 X125.771 Y107.714 E.02019
M204 S1000
G1 X125.781 Y108.126 F10800
M204 S800
;TYPE:External perimeter
G1 F1200
G1 X126.38 Y108.299 E.02111
G1 X126.944 Y108.566 E.02111
G1 X127.457 Y108.921 E.02111
G1 X127.907 Y109.353 E.02111
G1 X128.282 Y109.851 E.02111
G1 X128.572 Y110.404 E.02111
G1 X128.769 Y110.995 E.02111
G1 X128.869 Y111.611 E.02111
G1 X128.869 Y112.235 E.02111
G1 X128.769 Y112.85 E.02111
G1 X128.572 Y113.442 E.02111
G1 X128.282 Y113.994 E.02111
G1 X127.907 Y114.493 E.02111
G1 X127.457 Y114.925 E.02111
G1 X126.944 Y115.279 E.02111
G1 X126.38 Y115.547 E.02111
G1 X125.781 Y115.72 E.02111
G1 X125.162 Y115.796 E.02111
G1 X124.539 Y115.77 E.02111
G1 X123.928 Y115.646 E.02111
G1 X123.345 Y115.424 E.02111
G1 X122.804 Y115.113 E.02111
G1 X122.321 Y114.718 E.02111
G1 X121.908 Y114.251 E.02111
G1 X121.574 Y113.724 E.02111
G1 X121.33 Y113.15 E.02111
G1 X121.181 Y112.545 E.02111
G1 X121.13 Y111.923 E.02111
G1 X121.181 Y111.301 E.02111
G1 X121.33 Y110.696 E.02111
G1 X121.574 Y110.122 E.02111
G1 X121.908 Y109.595 E.02111
G1 X122.321 Y109.128 E.02111
G1 X122.804 Y108.733 E.02111
G1 X123.345 Y108.421 E.02111
G1 X123.928 Y108.2 E.02111
G1 X124.539 Y108.075 E.02111
G1 X125.162 Y108.05 E.02111
G1 X125.722 Y108.118 E.01908
M204 S1000
G1 X126.047 Y107.826 F10800
G1 X126.063 Y107.686
M204 S800
;TYPE:Perimeter
G1 F1200
G1 X126.642 Y107.874 E.02061
G1 X127.189 Y108.142 E.02062
G1 X127.694 Y108.482 E.02062
G1 X128.147 Y108.89 E.02062
G1 X128.539 Y109.356 E.02062
G1 X128.861 Y109.873 E.02062
G1 X129.109 Y110.43 E.02062
G1 X129.277 Y111.015 E.02062
G1 X129.362 Y111.618 E.02062
G1 X129.362 Y112.228 E.02062
G1 X129.277 Y112.831 E.02062
G1 X129.109 Y113.416 E.02062
G1 X128.861 Y113.973 E.02062
G1 X128.539 Y114.489 E.02062
G1 X128.149 Y114.954 E.02051
G1 X127.694 Y115.364 E.02074
G1 X127.189 Y115.704 E.02061
G1 X126.642 Y115.971 E.02062
G1 X126.062 Y116.16 E.02062
G1 X125.463 Y116.265 E.02062
G1 X124.854 Y116.287 E.02062
G1 X124.248 Y116.223 E.02062
G1 X123.657 Y116.076 E.02062
G1 X123.092 Y115.847 E.02062
G1 X122.564 Y115.543 E.02062
G1 X122.084 Y115.168 E.02062
G1 X121.661 Y114.73 E.02062
G1 X121.303 Y114.237 E.02062
G1 X121.017 Y113.699 E.02062
G1 X120.81 Y113.13 E.02051
G1 X120.682 Y112.53 E.02074
G1 X120.64 Y111.923 E.02061
G1 X120.682 Y111.315 E.02062
G1 X120.808 Y110.723 E.02051
