; generated by PrusaSlicer 2.4.2+win64 on 2022-09-09 at 13:25:54 UTC

; 

; external perimeters extrusion width = 0.45mm
; perimeters extrusion width = 0.45mm
; infill extrusion width = 0.45mm
; solid infill extrusion width = 0.45mm
; top infill extrusion width = 0.40mm
; first layer extrusion width = 0.45mm

; external perimeters extrusion width = 0.45mm
; perimeters extrusion width = 0.45mm
; infill extrusion width = 0.45mm
; solid infill extrusion width = 0.45mm
; top infill extrusion width = 0.40mm
; first layer extrusion width = 0.45mm

; external perimeters extrusion width = 0.45mm
; perimeters extrusion width = 0.45mm
; infill extrusion width = 0.45mm
; solid infill extrusion width = 0.45mm
; top infill extrusion width = 0.40mm
; first layer extrusion width = 0.45mm

; external perimeters extrusion width = 0.45mm
; perimeters extrusion width = 0.45mm
; infill extrusion width = 0.45mm
; solid infill extrusion width = 0.45mm
; top infill extrusion width = 0.40mm
; first layer extrusion width = 0.45mm

; external perimeters extrusion width = 0.45mm
; perimeters extrusion width = 0.45mm
; infill extrusion width = 0.45mm
; solid infill extrusion width = 0.45mm
; top infill extrusion width = 0.40mm
; first layer extrusion width = 0.45mm

; external perimeters extrusion width = 0.45mm
; perimeters extrusion width = 0.45mm
; infill extrusion width = 0.45mm
; solid infill extrusion width = 0.45mm
; top infill extrusion width = 0.40mm
; first layer extrusion width = 0.45mm

M73 P0 R5
M73 Q0 S5
M201 X1000 Y1000 Z200 E5000 ; sets maximum accelerations, mm/sec^2
M203 X200 Y200 Z12 E120 ; sets maximum feedrates, mm / sec
M204 P1250 R1250 T1250 ; sets acceleration (P, T) and retract acceleration (R), mm/sec^2
M205 X8.00 Y8.00 Z0.40 E4.50 ; sets the jerk limits, mm/sec
M205 S0 T0 ; sets the minimum extruding and travel feed rate, mm/sec
M107
;TYPE:Custom
M862.3 P "MK3S" ; printer model check
M862.1 P0.4 ; nozzle diameter check
M115 U3.10.1 ; tell printer latest fw version
G90 ; use absolute coordinates
M83 ; extruder relative mode
M104 S200 ; set extruder temp
M140 S25 ; set bed temp
M190 S25 ; wait for bed temp
M109 S200 ; wait for extruder temp
G28 W ; home all without mesh bed level
G80 ; mesh bed leveling
G1 Z0.2 F720
G1 Y-3 F1000 ; go outside print area
G92 E0
G1 X60 E9 F1000 ; intro line
G1 X100 E12.5 F1000 ; intro line
G92 E0
M221 S95

; Don't change E values below. Excessive value can damage the printer.

G21 ; set units to millimeters
G90 ; use absolute coordinates
M83 ; use relative distances for extrusion
T0
M900 K0.05 ; Filament gcode LA 1.5
M900 K30 ; Filament gcode LA 1.0
M107
;LAYER_CHANGE
;Z:0.2
;HEIGHT:0.2
;BEFORE_LAYER_CHANGE
G92 E0.0
;0.2


M73 P1 R5
M73 Q1 S5
G1 E-.8 F2100
G1 Z.4 F720
;AFTER_LAYER_CHANGE
;0.2
; printing object shape_002_v11.stl id:0 copy 0
G1 X39.546 Y88.372 F10800
G1 Z.2 F720
M73 P2 R5
M73 Q2 S5
G1 E.8 F2100
M204 S800
;TYPE:Internal infill
;WIDTH:0.45
G1 F1200
G1 X19.77 Y88.372 E.6694
G1 X19.77 Y88.78 E.01382
G1 X39.363 Y88.78 E.6632
G1 X39.363 Y89.188 E.01382
G1 X19.77 Y89.188 E.6632
G1 X19.77 Y89.596 E.01382
M73 P3 R5
M73 Q3 S5
G1 X39.363 Y89.596 E.6632
G1 X39.363 Y90.004 E.01382
G1 X19.77 Y90.004 E.6632
G1 X19.77 Y90.413 E.01382
G1 X39.363 Y90.413 E.6632
G1 X39.363 Y90.821 E.01382
M73 P4 R5
M73 Q4 S5
G1 X19.77 Y90.821 E.6632
G1 X19.77 Y91.229 E.01382
G1 X39.363 Y91.229 E.6632
G1 X39.363 Y91.637 E.01382
G1 X19.77 Y91.637 E.6632
G1 X19.77 Y92.045 E.01382
M73 P5 R5
M73 Q5 S5
G1 X39.363 Y92.045 E.6632
G1 X39.363 Y92.453 E.01382
G1 X19.77 Y92.453 E.6632
G1 X19.77 Y92.862 E.01382
M73 P5 R4
M73 Q5 S4
G1 X39.363 Y92.862 E.6632
G1 X39.363 Y93.27 E.01382
M73 P6 R4
M73 Q6 S4
G1 X19.77 Y93.27 E.6632
G1 X19.77 Y93.678 E.01382
G1 X39.363 Y93.678 E.6632
G1 X39.363 Y94.086 E.01382
G1 X19.77 Y94.086 E.6632
G1 X19.77 Y94.494 E.01382
M73 P7 R4
M73 Q7 S4
G1 X39.363 Y94.494 E.6632
G1 X39.363 Y94.902 E.01382
G1 X19.77 Y94.902 E.6632
G1 X19.77 Y95.311 E.01382
G1 X39.363 Y95.311 E.6632
G1 X39.363 Y95.719 E.01382
M73 P8 R4
M73 Q8 S4
G1 X19.77 Y95.719 E.6632
G1 X19.77 Y96.127 E.01382
G1 X39.363 Y96.127 E.6632
G1 X39.363 Y96.535 E.01382
G1 X19.77 Y96.535 E.6632
G1 X19.77 Y96.943 E.01382
M73 Q9 S4
G1 X39.363 Y96.943 E.6632
M73 P9 R4
G1 X39.363 Y97.351 E.01382
G1 X19.77 Y97.351 E.6632
G1 X19.77 Y97.76 E.01382
G1 X39.363 Y97.76 E.6632
G1 X39.363 Y98.168 E.01382
M73 Q10 S4
G1 X19.77 Y98.168 E.6632
G1 X19.77 Y98.576 E.01382
M73 P10 R4
G1 X39.363 Y98.576 E.6632
G1 X39.363 Y98.984 E.01382
G1 X19.77 Y98.984 E.6632
G1 X19.77 Y99.392 E.01382
G1 X39.363 Y99.392 E.6632
G1 X39.363 Y99.8 E.01382
M73 P11 R4
M73 Q11 S4
G1 X19.77 Y99.8 E.6632
G1 X19.77 Y100.208 E.01382
G1 X39.363 Y100.208 E.6632
G1 X39.363 Y100.617 E.01382
G1 X19.77 Y100.617 E.6632
G1 X19.77 Y101.025 E.01382
M73 P12 R4
M73 Q12 S4
G1 X39.363 Y101.025 E.6632
G1 X39.363 Y101.433 E.01382
G1 X19.77 Y101.433 E.6632
G1 X19.77 Y101.841 E.01382
G1 X39.363 Y101.841 E.6632
G1 X39.363 Y102.249 E.01382
M73 P13 R4
M73 Q13 S4
G1 X19.77 Y102.249 E.6632
G1 X19.77 Y102.657 E.01382
G1 X39.363 Y102.657 E.6632
G1 X39.363 Y103.066 E.01382
G1 X19.77 Y103.066 E.6632
G1 X19.77 Y103.474 E.01382
M73 P14 R4
M73 Q14 S4
G1 X39.363 Y103.474 E.6632
G1 X39.363 Y103.882 E.01382
G1 X19.77 Y103.882 E.6632
G1 X19.77 Y104.29 E.01382
G1 X39.363 Y104.29 E.6632
G1 X39.363 Y104.698 E.01382
M73 P15 R4
M73 Q15 S4
G1 X19.77 Y104.698 E.6632
G1 X19.77 Y105.106 E.01382
G1 X39.363 Y105.106 E.6632
G1 X39.363 Y105.515 E.01382
G1 X19.77 Y105.515 E.6632
G1 X19.77 Y105.923 E.01382
M73 P16 R4
M73 Q16 S4
G1 X39.363 Y105.923 E.6632
G1 X39.363 Y106.331 E.01382
G1 X19.77 Y106.331 E.6632
G1 X19.77 Y106.739 E.01382
G1 X39.363 Y106.739 E.6632
G1 X39.363 Y107.147 E.01382
M73 P17 R4
M73 Q17 S4
G1 X19.77 Y107.147 E.6632
G1 X19.77 Y107.555 E.01382
G1 X39.363 Y107.555 E.6632
G1 X39.363 Y107.964 E.01382
G1 X19.586 Y107.964 E.6694
M204 S1000
; stop printing object shape_002_v11.stl id:0 copy 0
; printing object shape_002_v11.stl id:1 copy 0
; stop printing object shape_002_v11.stl id:1 copy 0
; printing object shape_002_v11.stl id:2 copy 0
; stop printing object shape_002_v11.stl id:2 copy 0
; printing object shape_002_v11.stl id:3 copy 0
; stop printing object shape_002_v11.stl id:3 copy 0
; printing object shape_002_v11.stl id:4 copy 0
; stop printing object shape_002_v11.stl id:4 copy 0
; printing object shape_002_v11.stl id:5 copy 0
; stop printing object shape_002_v11.stl id:5 copy 0
;WIPE_START
G1 F8640
M73 Q18 S4
G1 X36.044 Y107.964 E-3.8
;WIPE_END
G1 E-.2 F2100
M73 P18 R4
G1 Z.6 F720
; Filament-specific end gcode
T1
M900 K0.05 ; Filament gcode LA 1.5
M900 K30 ; Filament gcode LA 1.0
; printing object shape_002_v11.stl id:0 copy 0
; stop printing object shape_002_v11.stl id:0 copy 0
; printing object shape_002_v11.stl id:1 copy 0
G1 E-.8 F2100
G1 X46.025 Y109.708 F10800
G1 Z.2 F720
G1 E.8 F2100
M204 S800
G1 F1200
G1 X65.801 Y109.708 E.6694
G1 X65.801 Y109.3 E.01382
G1 X46.208 Y109.3 E.6632
G1 X46.208 Y108.892 E.01382
G1 X65.801 Y108.892 E.6632
G1 X65.801 Y108.484 E.01382
M73 P19 R4
M73 Q19 S4
G1 X46.208 Y108.484 E.6632
G1 X46.208 Y108.076 E.01382
G1 X65.801 Y108.076 E.6632
G1 X65.801 Y107.668 E.01382
G1 X46.208 Y107.668 E.6632
G1 X46.208 Y107.259 E.01382
M73 P20 R4
M73 Q20 S4
G1 X65.801 Y107.259 E.6632
G1 X65.801 Y106.851 E.01382
G1 X46.208 Y106.851 E.6632
G1 X46.208 Y106.443 E.01382
G1 X65.801 Y106.443 E.6632
G1 X65.801 Y106.035 E.01382
M73 P21 R4
M73 Q21 S4
G1 X46.208 Y106.035 E.6632
G1 X46.208 Y105.627 E.01382
G1 X65.801 Y105.627 E.6632
G1 X65.801 Y105.219 E.01382
G1 X46.208 Y105.219 E.6632
G1 X46.208 Y104.81 E.01382
M73 P22 R4
M73 Q22 S4
G1 X65.801 Y104.81 E.6632
G1 X65.801 Y104.402 E.01382
G1 X46.208 Y104.402 E.6632
G1 X46.208 Y103.994 E.01382
G1 X65.801 Y103.994 E.6632
G1 X65.801 Y103.586 E.01382
M73 P23 R4
M73 Q23 S4
G1 X46.208 Y103.586 E.6632
G1 X46.208 Y103.178 E.01382
G1 X65.801 Y103.178 E.6632
G1 X65.801 Y102.77 E.01382
G1 X46.208 Y102.77 E.6632
G1 X46.208 Y102.361 E.01382
M73 Q24 S4
G1 X65.801 Y102.361 E.6632
G1 X65.801 Y101.953 E.01382
M73 P24 R4
G1 X46.208 Y101.953 E.6632
G1 X46.208 Y101.545 E.01382
M73 P24 R3
M73 Q24 S3
G1 X65.801 Y101.545 E.6632
G1 X65.801 Y101.137 E.01382
G1 X46.208 Y101.137 E.6632
G1 X46.208 Y100.729 E.01382
M73 P25 R3
M73 Q25 S3
G1 X65.801 Y100.729 E.6632
G1 X65.801 Y100.321 E.01382
G1 X46.208 Y100.321 E.6632
G1 X46.208 Y99.913 E.01382
G1 X65.801 Y99.913 E.6632
G1 X65.801 Y99.504 E.01382
M73 P26 R3
M73 Q26 S3
G1 X46.208 Y99.504 E.6632
G1 X46.208 Y99.096 E.01382
G1 X65.801 Y99.096 E.6632
G1 X65.801 Y98.688 E.01382
G1 X46.208 Y98.688 E.6632
G1 X46.208 Y98.28 E.01382
M73 P27 R3
M73 Q27 S3
G1 X65.801 Y98.28 E.6632
G1 X65.801 Y97.872 E.01382
G1 X46.208 Y97.872 E.6632
G1 X46.208 Y97.464 E.01382
G1 X65.801 Y97.464 E.6632
G1 X65.801 Y97.055 E.01382
M73 P28 R3
M73 Q28 S3
G1 X46.208 Y97.055 E.6632
G1 X46.208 Y96.647 E.01382
G1 X65.801 Y96.647 E.6632
G1 X65.801 Y96.239 E.01382
G1 X46.208 Y96.239 E.6632
G1 X46.208 Y95.831 E.01382
M73 P29 R3
M73 Q29 S3
G1 X65.801 Y95.831 E.6632
G1 X65.801 Y95.423 E.01382
G1 X46.208 Y95.423 E.6632
G1 X46.208 Y95.015 E.01382
G1 X65.801 Y95.015 E.6632
G1 X65.801 Y94.606 E.01382
M73 P30 R3
M73 Q30 S3
G1 X46.208 Y94.606 E.6632
G1 X46.208 Y94.198 E.01382
G1 X65.801 Y94.198 E.6632
G1 X65.801 Y93.79 E.01382
G1 X46.208 Y93.79 E.6632
G1 X46.208 Y93.382 E.01382
M73 P31 R3
M73 Q31 S3
G1 X65.801 Y93.382 E.6632
G1 X65.801 Y92.974 E.01382
G1 X46.208 Y92.974 E.6632
G1 X46.208 Y92.566 E.01382
G1 X65.801 Y92.566 E.6632
G1 X65.801 Y92.157 E.01382
M73 Q32 S3
G1 X46.208 Y92.157 E.6632
M73 P32 R3
G1 X46.208 Y91.749 E.01382
G1 X65.801 Y91.749 E.6632
G1 X65.801 Y91.341 E.01382
G1 X46.208 Y91.341 E.6632
G1 X46.208 Y90.933 E.01382
G1 X65.801 Y90.933 E.6632
M73 Q33 S3
G1 X65.801 Y90.525 E.01382
M73 P33 R3
G1 X46.208 Y90.525 E.6632
G1 X46.208 Y90.117 E.01382
G1 X65.984 Y90.117 E.6694
M204 S1000
; stop printing object shape_002_v11.stl id:1 copy 0
; printing object shape_002_v11.stl id:2 copy 0
; stop printing object shape_002_v11.stl id:2 copy 0
; printing object shape_002_v11.stl id:3 copy 0
; stop printing object shape_002_v11.stl id:3 copy 0
; printing object shape_002_v11.stl id:4 copy 0
; stop printing object shape_002_v11.stl id:4 copy 0
; printing object shape_002_v11.stl id:5 copy 0
; stop printing object shape_002_v11.stl id:5 copy 0
;WIPE_START
G1 F8640
G1 X49.527 Y90.117 E-3.8
;WIPE_END
G1 E-.2 F2100
M73 Q34 S3
G1 Z.6 F720
; Filament-specific end gcode
T2
M900 K0.05 ; Filament gcode LA 1.5
M900 K30 ; Filament gcode LA 1.0
; printing object shape_002_v11.stl id:0 copy 0
; stop printing object shape_002_v11.stl id:0 copy 0
; printing object shape_002_v11.stl id:1 copy 0
; stop printing object shape_002_v11.stl id:1 copy 0
; printing object shape_002_v11.stl id:2 copy 0
M73 P34 R3
G1 E-.8 F2100
G1 X74.628 Y109.625 F10800
G1 Z.2 F720
G1 E.8 F2100
M204 S800
G1 F1200
G1 X94.404 Y109.625 E.6694
G1 X94.404 Y109.217 E.01382
G1 X74.811 Y109.217 E.6632
G1 X74.811 Y108.808 E.01382
G1 X94.404 Y108.808 E.6632
G1 X94.404 Y108.4 E.01382
M73 P35 R3
M73 Q35 S3
G1 X74.811 Y108.4 E.6632
G1 X74.811 Y107.992 E.01382
G1 X94.404 Y107.992 E.6632
G1 X94.404 Y107.584 E.01382
G1 X74.811 Y107.584 E.6632
G1 X74.811 Y107.176 E.01382
M73 P36 R3
M73 Q36 S3
G1 X94.404 Y107.176 E.6632
G1 X94.404 Y106.768 E.01382
G1 X74.811 Y106.768 E.6632
G1 X74.811 Y106.36 E.01382
G1 X94.404 Y106.36 E.6632
G1 X94.404 Y105.951 E.01382
M73 P37 R3
M73 Q37 S3
G1 X74.811 Y105.951 E.6632
G1 X74.811 Y105.543 E.01382
G1 X94.404 Y105.543 E.6632
G1 X94.404 Y105.135 E.01382
G1 X74.811 Y105.135 E.6632
G1 X74.811 Y104.727 E.01382
M73 P38 R3
M73 Q38 S3
G1 X94.404 Y104.727 E.6632
G1 X94.404 Y104.319 E.01382
G1 X74.811 Y104.319 E.6632
G1 X74.811 Y103.911 E.01382
G1 X94.404 Y103.911 E.6632
G1 X94.404 Y103.502 E.01382
M73 Q39 S3
G1 X74.811 Y103.502 E.6632
M73 P39 R3
G1 X74.811 Y103.094 E.01382
G1 X94.404 Y103.094 E.6632
G1 X94.404 Y102.686 E.01382
G1 X74.811 Y102.686 E.6632
G1 X74.811 Y102.278 E.01382
M73 Q40 S3
G1 X94.404 Y102.278 E.6632
G1 X94.404 Y101.87 E.01382
M73 P40 R3
G1 X74.811 Y101.87 E.6632
G1 X74.811 Y101.462 E.01382
G1 X94.404 Y101.462 E.6632
G1 X94.404 Y101.053 E.01382
G1 X74.811 Y101.053 E.6632
G1 X74.811 Y100.645 E.01382
M73 P41 R3
M73 Q41 S3
G1 X94.404 Y100.645 E.6632
G1 X94.404 Y100.237 E.01382
G1 X74.811 Y100.237 E.6632
G1 X74.811 Y99.829 E.01382
G1 X94.404 Y99.829 E.6632
G1 X94.404 Y99.421 E.01382
M73 P42 R3
M73 Q42 S3
G1 X74.811 Y99.421 E.6632
G1 X74.811 Y99.013 E.01382
G1 X94.404 Y99.013 E.6632
G1 X94.404 Y98.604 E.01382
G1 X74.811 Y98.604 E.6632
G1 X74.811 Y98.196 E.01382
M73 P43 R3
M73 Q43 S3
G1 X94.404 Y98.196 E.6632
G1 X94.404 Y97.788 E.01382
M73 P43 R2
M73 Q43 S2
G1 X74.811 Y97.788 E.6632
G1 X74.811 Y97.38 E.01382
G1 X94.404 Y97.38 E.6632
G1 X94.404 Y96.972 E.01382
M73 P44 R2
M73 Q44 S2
G1 X74.811 Y96.972 E.6632
G1 X74.811 Y96.564 E.01382
G1 X94.404 Y96.564 E.6632
G1 X94.404 Y96.155 E.01382
G1 X74.811 Y96.155 E.6632
G1 X74.811 Y95.747 E.01382
M73 P45 R2
M73 Q45 S2
G1 X94.404 Y95.747 E.6632
G1 X94.404 Y95.339 E.01382
G1 X74.811 Y95.339 E.6632
G1 X74.811 Y94.931 E.01382
G1 X94.404 Y94.931 E.6632
G1 X94.404 Y94.523 E.01382
M73 P46 R2
M73 Q46 S2
G1 X74.811 Y94.523 E.6632
G1 X74.811 Y94.115 E.01382
G1 X94.404 Y94.115 E.6632
G1 X94.404 Y93.706 E.01382
G1 X74.811 Y93.706 E.6632
G1 X74.811 Y93.298 E.01382
M73 P47 R2
M73 Q47 S2
G1 X94.404 Y93.298 E.6632
G1 X94.404 Y92.89 E.01382
G1 X74.811 Y92.89 E.6632
G1 X74.811 Y92.482 E.01382
G1 X94.404 Y92.482 E.6632
G1 X94.404 Y92.074 E.01382
M73 Q48 S2
G1 X74.811 Y92.074 E.6632
G1 X74.811 Y91.666 E.01382
M73 P48 R2
G1 X94.404 Y91.666 E.6632
G1 X94.404 Y91.257 E.01382
G1 X74.811 Y91.257 E.6632
G1 X74.811 Y90.849 E.01382
G1 X94.404 Y90.849 E.6632
G1 X94.404 Y90.441 E.01382
M73 P49 R2
M73 Q49 S2
G1 X74.811 Y90.441 E.6632
G1 X74.811 Y90.033 E.01382
G1 X94.587 Y90.033 E.6694
M204 S1000
; stop printing object shape_002_v11.stl id:2 copy 0
; printing object shape_002_v11.stl id:3 copy 0
; stop printing object shape_002_v11.stl id:3 copy 0
; printing object shape_002_v11.stl id:4 copy 0
; stop printing object shape_002_v11.stl id:4 copy 0
; printing object shape_002_v11.stl id:5 copy 0
; stop printing object shape_002_v11.stl id:5 copy 0
;WIPE_START
G1 F8640
G1 X78.13 Y90.033 E-3.8
;WIPE_END
G1 E-.2 F2100
M73 Q50 S2
G1 Z.6 F720
; Filament-specific end gcode
T3
M900 K0.05 ; Filament gcode LA 1.5
M900 K30 ; Filament gcode LA 1.0
; printing object shape_002_v11.stl id:0 copy 0
; stop printing object shape_002_v11.stl id:0 copy 0
; printing object shape_002_v11.stl id:1 copy 0
; stop printing object shape_002_v11.stl id:1 copy 0
; printing object shape_002_v11.stl id:2 copy 0
; stop printing object shape_002_v11.stl id:2 copy 0
; printing object shape_002_v11.stl id:3 copy 0
G1 E-.8 F2100
M73 P50 R2
G1 X101.675 Y109.072 F10800
G1 Z.2 F720
G1 E.8 F2100
M204 S800
G1 F1200
G1 X121.451 Y109.072 E.6694
G1 X121.451 Y108.663 E.01382
G1 X101.858 Y108.663 E.6632
G1 X101.858 Y108.255 E.01382
G1 X121.451 Y108.255 E.6632
G1 X121.451 Y107.847 E.01382
M73 P51 R2
M73 Q51 S2
G1 X101.858 Y107.847 E.6632
G1 X101.858 Y107.439 E.01382
G1 X121.451 Y107.439 E.6632
G1 X121.451 Y107.031 E.01382
G1 X101.858 Y107.031 E.6632
G1 X101.858 Y106.623 E.01382
M73 P52 R2
M73 Q52 S2
G1 X121.451 Y106.623 E.6632
G1 X121.451 Y106.214 E.01382
G1 X101.858 Y106.214 E.6632
G1 X101.858 Y105.806 E.01382
G1 X121.451 Y105.806 E.6632
G1 X121.451 Y105.398 E.01382
M73 P53 R2
M73 Q53 S2
G1 X101.858 Y105.398 E.6632
G1 X101.858 Y104.99 E.01382
G1 X121.451 Y104.99 E.6632
G1 X121.451 Y104.582 E.01382
G1 X101.858 Y104.582 E.6632
G1 X101.858 Y104.174 E.01382
M73 P54 R2
M73 Q54 S2
G1 X121.451 Y104.174 E.6632
G1 X121.451 Y103.765 E.01382
G1 X101.858 Y103.765 E.6632
G1 X101.858 Y103.357 E.01382
G1 X121.451 Y103.357 E.6632
G1 X121.451 Y102.949 E.01382
M73 Q55 S2
G1 X101.858 Y102.949 E.6632
G1 X101.858 Y102.541 E.01382
M73 P55 R2
G1 X121.451 Y102.541 E.6632
G1 X121.451 Y102.133 E.01382
G1 X101.858 Y102.133 E.6632
G1 X101.858 Y101.725 E.01382
G1 X121.451 Y101.725 E.6632
G1 X121.451 Y101.316 E.01382
M73 P56 R2
M73 Q56 S2
