; generated by PrusaSlicer 2.4.2+win64 on 2022-09-06 at 19:02:12 UTC

; 

; external perimeters extrusion width = 0.45mm
; perimeters extrusion width = 0.45mm
; infill extrusion width = 0.45mm
; solid infill extrusion width = 0.45mm
; top infill extrusion width = 0.40mm
; first layer extrusion width = 0.45mm

; external perimeters extrusion width = 0.45mm
; perimeters extrusion width = 0.45mm
; infill extrusion width = 0.45mm
; solid infill extrusion width = 0.45mm
; top infill extrusion width = 0.40mm
; first layer extrusion width = 0.45mm

; external perimeters extrusion width = 0.45mm
; perimeters extrusion width = 0.45mm
; infill extrusion width = 0.45mm
; solid infill extrusion width = 0.45mm
; top infill extrusion width = 0.40mm
; first layer extrusion width = 0.45mm

; external perimeters extrusion width = 0.45mm
; perimeters extrusion width = 0.45mm
; infill extrusion width = 0.45mm
; solid infill extrusion width = 0.45mm
; top infill extrusion width = 0.40mm
; first layer extrusion width = 0.45mm

; external perimeters extrusion width = 0.45mm
; perimeters extrusion width = 0.45mm
; infill extrusion width = 0.45mm
; solid infill extrusion width = 0.45mm
; top infill extrusion width = 0.40mm
; first layer extrusion width = 0.45mm

M73 P0 R49
M73 Q0 S49
M201 X1000 Y1000 Z200 E5000 ; sets maximum accelerations, mm/sec^2
M203 X200 Y200 Z12 E120 ; sets maximum feedrates, mm / sec
M204 P1250 R1250 T1250 ; sets acceleration (P, T) and retract acceleration (R), mm/sec^2
M205 X8.00 Y8.00 Z0.40 E4.50 ; sets the jerk limits, mm/sec
M205 S0 T0 ; sets the minimum extruding and travel feed rate, mm/sec
M107
;TYPE:Custom
M862.3 P "MK3S" ; printer model check
M862.1 P0.4 ; nozzle diameter check
M115 U3.10.1 ; tell printer latest fw version
G90 ; use absolute coordinates
M83 ; extruder relative mode
M104 S190 ; set extruder temp
M140 S30 ; set bed temp
M190 S30 ; wait for bed temp
M109 S190 ; wait for extruder temp
G28 W ; home all without mesh bed level
G80 ; mesh bed leveling
G1 Z0.2 F720
G1 Y-3 F1000 ; go outside print area
G92 E0
G1 X60 E9 F1000 ; intro line
G1 X100 E12.5 F1000 ; intro line
G92 E0
M221 S95

; Don't change E values below. Excessive value can damage the printer.

G21 ; set units to millimeters
G90 ; use absolute coordinates
M83 ; use relative distances for extrusion
T0
M900 K0.05 ; Filament gcode LA 1.5
M900 K30 ; Filament gcode LA 1.0
M107
;LAYER_CHANGE
;Z:0.2
;HEIGHT:0.2
;BEFORE_LAYER_CHANGE
G92 E0.0
;0.2


G1 E-.8 F2100
G1 Z.4 F720
;AFTER_LAYER_CHANGE
;0.2
; printing object shape_001_v11.stl id:0 copy 0
G1 X36.361 Y153.902 F10800
G1 Z.2 F720
G1 E.8 F2100
M204 S800
;TYPE:Perimeter
;WIDTH:0.45
G1 F1200
G1 X37.068 Y153.753 E.02444
G1 X37.757 Y153.725 E.02334
G1 X38.441 Y153.808 E.02334
G1 X39.103 Y154 E.02334
G1 X39.726 Y154.295 E.02334
G1 X40.294 Y154.687 E.02334
G1 X40.791 Y155.165 E.02334
G1 X41.205 Y155.716 E.02334
G1 X41.525 Y156.326 E.02334
G1 X41.744 Y156.98 E.02334
G1 X41.854 Y157.661 E.02334
G1 X41.854 Y158.35 E.02334
G1 X41.744 Y159.031 E.02334
G1 X41.525 Y159.685 E.02334
G1 X41.205 Y160.295 E.02334
G1 X40.791 Y160.846 E.02334
G1 X40.294 Y161.324 E.02334
G1 X39.726 Y161.716 E.02334
G1 X39.103 Y162.011 E.02334
G1 X38.441 Y162.203 E.02334
G1 X37.757 Y162.286 E.02334
G1 X37.068 Y162.258 E.02334
G1 X36.392 Y162.12 E.02334
G1 X35.747 Y161.876 E.02334
G1 X35.15 Y161.531 E.02334
G1 X34.616 Y161.095 E.02334
G1 X34.159 Y160.579 E.02334
G1 X33.791 Y159.996 E.02334
G1 X33.52 Y159.362 E.02334
G1 X33.355 Y158.693 E.02334
G1 X33.3 Y158.006 E.02334
G1 X33.355 Y157.318 E.02334
G1 X33.52 Y156.649 E.02334
G1 X33.791 Y156.015 E.02334
G1 X34.159 Y155.432 E.02334
G1 X34.616 Y154.916 E.02334
G1 X35.15 Y154.48 E.02334
G1 X35.747 Y154.135 E.02334
G1 X36.305 Y153.923 E.02019
M204 S1000
G1 X36.506 Y154.283 F10800
M204 S800
;TYPE:External perimeter
G1 F1200
G1 X37.117 Y154.158 E.02111
G1 X37.74 Y154.133 E.02111
G1 X38.359 Y154.208 E.02111
G1 X38.958 Y154.382 E.02111
G1 X39.522 Y154.649 E.02111
G1 X40.035 Y155.003 E.02111
G1 X40.485 Y155.435 E.02111
G1 X40.86 Y155.934 E.02111
G1 X41.15 Y156.486 E.02111
G1 X41.347 Y157.078 E.02111
G1 X41.447 Y157.694 E.02111
G1 X41.447 Y158.317 E.02111
G1 X41.347 Y158.933 E.02111
G1 X41.15 Y159.525 E.02111
G1 X40.86 Y160.077 E.02111
G1 X40.485 Y160.576 E.02111
G1 X40.035 Y161.008 E.02111
G1 X39.522 Y161.362 E.02111
G1 X38.958 Y161.629 E.02111
G1 X38.359 Y161.803 E.02111
G1 X37.74 Y161.878 E.02111
G1 X37.117 Y161.853 E.02111
G1 X36.506 Y161.728 E.02111
G1 X35.923 Y161.507 E.02111
G1 X35.382 Y161.195 E.02111
G1 X34.899 Y160.801 E.02111
G1 X34.486 Y160.334 E.02111
G1 X34.152 Y159.807 E.02111
G1 X33.908 Y159.233 E.02111
G1 X33.759 Y158.627 E.02111
G1 X33.708 Y158.006 E.02111
G1 X33.759 Y157.384 E.02111
G1 X33.908 Y156.778 E.02111
G1 X34.152 Y156.204 E.02111
G1 X34.486 Y155.677 E.02111
G1 X34.899 Y155.21 E.02111
G1 X35.382 Y154.816 E.02111
G1 X35.923 Y154.504 E.02111
G1 X36.45 Y154.304 E.01908
M204 S1000
G1 X36.602 Y153.894 F10800
G1 X36.389 Y153.814
M204 S800
;TYPE:Perimeter
G1 F1200
G1 X36.826 Y153.705 E.01524
G1 X37.432 Y153.642 E.02062
G1 X38.037 Y153.663 E.02051
G1 X38.641 Y153.769 E.02074
G1 X39.22 Y153.957 E.02061
G1 X39.767 Y154.224 E.02062
G1 X40.272 Y154.565 E.02062
G1 X40.725 Y154.972 E.02062
G1 X41.117 Y155.439 E.02062
G1 X41.439 Y155.956 E.02062
G1 X41.687 Y156.512 E.02062
G1 X41.855 Y157.098 E.02062
G1 X41.94 Y157.701 E.02062
G1 X41.94 Y158.31 E.02062
G1 X41.855 Y158.913 E.02062
G1 X41.687 Y159.499 E.02062
G1 X41.439 Y160.055 E.02062
G1 X41.117 Y160.572 E.02062
G1 X40.727 Y161.036 E.02051
G1 X40.272 Y161.446 E.02074
G1 X39.767 Y161.787 E.02061
G1 X39.22 Y162.054 E.02062
G1 X38.64 Y162.242 E.02062
G1 X38.04 Y162.348 E.02062
G1 X37.432 Y162.369 E.02062
G1 X36.826 Y162.306 E.02062
G1 X36.235 Y162.158 E.02062
G1 X35.67 Y161.93 E.02062
G1 X35.142 Y161.625 E.02062
G1 X34.662 Y161.25 E.02062
G1 X34.239 Y160.812 E.02062
G1 X33.881 Y160.319 E.02062
G1 X33.595 Y159.781 E.02062
G1 X33.388 Y159.212 E.02051
G1 X33.26 Y158.613 E.02074
G1 X33.218 Y158.006 E.02061
G1 X33.26 Y157.398 E.02062
G1 X33.386 Y156.805 E.02051
G1 X33.595 Y156.229 E.02074
G1 X33.881 Y155.692 E.02061
G1 X34.237 Y155.202 E.02051
G1 X34.663 Y154.761 E.02074
G1 X35.142 Y154.386 E.02061
G1 X35.67 Y154.081 E.02062
G1 X36.331 Y153.829 E.02394
M204 S1000
G1 X36.291 Y153.419 F10800
M204 S800
;TYPE:External perimeter
G1 F1200
G1 X36.755 Y153.304 E.0162
G1 X37.417 Y153.234 E.02255
G1 X38.08 Y153.257 E.02243
G1 X38.739 Y153.373 E.02266
G1 X39.373 Y153.579 E.02254
G1 X39.971 Y153.871 E.02255
G1 X40.524 Y154.243 E.02255
G1 X41.019 Y154.689 E.02255
G1 X41.447 Y155.199 E.02255
G1 X41.8 Y155.764 E.02255
G1 X42.071 Y156.373 E.02255
G1 X42.254 Y157.013 E.02255
G1 X42.347 Y157.672 E.02255
G1 X42.347 Y158.339 E.02255
G1 X42.254 Y158.998 E.02255
G1 X42.071 Y159.638 E.02255
G1 X41.8 Y160.247 E.02255
G1 X41.447 Y160.812 E.02255
G1 X41.021 Y161.32 E.02243
G1 X40.523 Y161.768 E.02266
G1 X39.971 Y162.14 E.02254
G1 X39.373 Y162.432 E.02255
G1 X38.739 Y162.638 E.02255
G1 X38.083 Y162.754 E.02255
G1 X37.417 Y162.777 E.02255
G1 X36.755 Y162.707 E.02255
G1 X36.109 Y162.546 E.02255
G1 X35.491 Y162.297 E.02255
G1 X34.914 Y161.964 E.02255
G1 X34.389 Y161.554 E.02255
G1 X33.927 Y161.074 E.02255
G1 X33.535 Y160.536 E.02255
G1 X33.222 Y159.947 E.02255
G1 X32.996 Y159.325 E.02243
G1 X32.856 Y158.67 E.02266
G1 X32.81 Y158.006 E.02254
G1 X32.856 Y157.341 E.02255
G1 X32.994 Y156.693 E.02243
G1 X33.222 Y156.063 E.02266
G1 X33.535 Y155.475 E.02254
G1 X33.925 Y154.939 E.02243
G1 X34.389 Y154.457 E.02266
G1 X34.914 Y154.047 E.02254
G1 X35.491 Y153.714 E.02255
G1 X36.109 Y153.465 E.02255
G1 X36.232 Y153.434 E.00431
M204 S1000
G1 X36.579 Y153.697 F10800
; stop printing object shape_001_v11.stl id:0 copy 0
;LAYER_CHANGE
;Z:0.4
;HEIGHT:0.2
;BEFORE_LAYER_CHANGE
G92 E0.0
;0.4


;WIPE_START
G1 F8640
G1 X36.755 Y153.304 E-.12439
G1 X37.417 Y153.234 E-.1538
G1 X38.08 Y153.257 E-.15302
G1 X38.739 Y153.373 E-.1546
G1 X39.373 Y153.579 E-.15379
G1 X39.452 Y153.617 E-.0204
;WIPE_END
G1 E-.04 F2100
G1 Z.6 F720
;AFTER_LAYER_CHANGE
;0.4
; printing object shape_001_v11.stl id:0 copy 0
G1 X39.133 Y154.014 F10800
G1 Z.4 F720
G1 E.8 F2100
M204 S800
;TYPE:Perimeter
G1 F1200
G1 X39.726 Y154.295 E.02222
G1 X40.294 Y154.687 E.02334
G1 X40.791 Y155.165 E.02334
G1 X41.205 Y155.716 E.02334
G1 X41.525 Y156.326 E.02334
G1 X41.744 Y156.98 E.02334
G1 X41.854 Y157.661 E.02334
G1 X41.854 Y158.35 E.02334
G1 X41.744 Y159.031 E.02334
G1 X41.525 Y159.685 E.02334
G1 X41.205 Y160.295 E.02334
G1 X40.791 Y160.846 E.02334
G1 X40.294 Y161.324 E.02334
G1 X39.726 Y161.716 E.02334
G1 X39.112 Y162.007 E.02301
G1 X38.442 Y162.203 E.02363
G1 X37.757 Y162.286 E.02336
G1 X37.068 Y162.258 E.02334
G1 X36.392 Y162.121 E.02334
G1 X35.747 Y161.876 E.02334
G1 X35.15 Y161.531 E.02334
G1 X34.616 Y161.095 E.02334
G1 X34.159 Y160.579 E.02334
G1 X33.791 Y159.996 E.02334
G1 X33.524 Y159.371 E.02301
G1 X33.355 Y158.693 E.02363
G1 X33.3 Y158.006 E.02336
G1 X33.355 Y157.318 E.02334
G1 X33.518 Y156.658 E.02301
G1 X33.79 Y156.015 E.02363
G1 X34.159 Y155.432 E.02336
G1 X34.616 Y154.916 E.02334
G1 X35.15 Y154.48 E.02334
G1 X35.747 Y154.135 E.02334
G1 X36.392 Y153.891 E.02334
G1 X37.068 Y153.753 E.02334
G1 X37.747 Y153.725 E.02301
G1 X38.44 Y153.808 E.02363
G1 X39.077 Y153.992 E.02244
M204 S1000
G1 X38.958 Y154.382 F10800
M204 S800
;TYPE:External perimeter
G1 F1200
G1 X39.522 Y154.649 E.02111
G1 X40.035 Y155.003 E.02111
G1 X40.485 Y155.435 E.02111
G1 X40.86 Y155.934 E.02111
G1 X41.15 Y156.486 E.02111
G1 X41.347 Y157.078 E.02111
G1 X41.447 Y157.694 E.02111
G1 X41.447 Y158.317 E.02111
G1 X41.347 Y158.933 E.02111
G1 X41.15 Y159.525 E.02111
G1 X40.86 Y160.077 E.02111
G1 X40.485 Y160.576 E.02111
G1 X40.035 Y161.008 E.02111
G1 X39.522 Y161.362 E.02111
G1 X38.967 Y161.625 E.02081
G1 X38.36 Y161.803 E.02141
G1 X37.74 Y161.878 E.02112
G1 X37.117 Y161.853 E.02111
G1 X36.506 Y161.728 E.02111
G1 X35.923 Y161.507 E.02111
G1 X35.382 Y161.195 E.02111
G1 X34.899 Y160.801 E.02111
G1 X34.486 Y160.334 E.02111
G1 X34.152 Y159.807 E.02111
G1 X33.911 Y159.241 E.02081
G1 X33.759 Y158.627 E.02141
G1 X33.708 Y158.006 E.02112
G1 X33.759 Y157.384 E.02111
G1 X33.906 Y156.787 E.02081
G1 X34.152 Y156.205 E.02141
G1 X34.486 Y155.677 E.02112
G1 X34.899 Y155.21 E.02111
G1 X35.382 Y154.816 E.02111
G1 X35.923 Y154.504 E.02111
G1 X36.506 Y154.283 E.02111
G1 X37.117 Y154.158 E.02111
G1 X37.731 Y154.133 E.02081
G1 X38.359 Y154.208 E.02141
G1 X38.901 Y154.365 E.01909
M204 S1000
G1 X39.268 Y154.128 F10800
G1 X39.108 Y153.921
M204 S800
;TYPE:Perimeter
G1 F1200
G1 X39.22 Y153.957 E.00397
G1 X39.767 Y154.224 E.02062
G1 X40.264 Y154.559 E.02029
G1 X40.725 Y154.973 E.02097
G1 X41.117 Y155.439 E.0206
G1 X41.439 Y155.956 E.02062
G1 X41.687 Y156.512 E.02062
G1 X41.855 Y157.098 E.02062
G1 X41.94 Y157.701 E.02062
G1 X41.94 Y158.31 E.02062
G1 X41.855 Y158.913 E.02062
G1 X41.69 Y159.489 E.02029
G1 X41.439 Y160.056 E.02097
G1 X41.117 Y160.572 E.0206
G1 X40.725 Y161.039 E.02062
G1 X40.28 Y161.44 E.02029
G1 X39.767 Y161.787 E.02097
G1 X39.22 Y162.054 E.0206
G1 X38.64 Y162.242 E.02062
G1 X38.04 Y162.348 E.02062
G1 X37.432 Y162.369 E.02062
G1 X36.826 Y162.306 E.02062
G1 X36.235 Y162.158 E.02062
G1 X35.67 Y161.93 E.02062
G1 X35.142 Y161.625 E.02062
G1 X34.662 Y161.25 E.02062
G1 X34.239 Y160.812 E.02062
G1 X33.887 Y160.327 E.02029
G1 X33.595 Y159.781 E.02097
G1 X33.387 Y159.209 E.0206
G1 X33.26 Y158.613 E.02062
G1 X33.218 Y158.006 E.02062
G1 X33.26 Y157.398 E.02062
G1 X33.385 Y156.812 E.02029
G1 X33.595 Y156.229 E.02097
G1 X33.881 Y155.692 E.0206
G1 X34.233 Y155.207 E.02029
G1 X34.663 Y154.76 E.02097
G1 X35.142 Y154.386 E.0206
G1 X35.67 Y154.081 E.02062
G1 X36.235 Y153.853 E.02062
G1 X36.826 Y153.705 E.02062
G1 X37.432 Y153.642 E.02062
G1 X38.031 Y153.663 E.02029
G1 X38.641 Y153.769 E.02097
G1 X39.051 Y153.902 E.01459
M204 S1000
G1 X39.234 Y153.534 F10800
M204 S800
;TYPE:External perimeter
G1 F1200
G1 X39.373 Y153.579 E.00494
G1 X39.971 Y153.871 E.02255
G1 X40.515 Y154.237 E.0222
G1 X41.019 Y154.689 E.0229
G1 X41.447 Y155.199 E.02254
G1 X41.8 Y155.764 E.02255
G1 X42.071 Y156.373 E.02255
G1 X42.254 Y157.013 E.02255
G1 X42.347 Y157.672 E.02255
G1 X42.347 Y158.339 E.02255
G1 X42.254 Y158.998 E.02255
G1 X42.073 Y159.629 E.0222
G1 X41.8 Y160.247 E.0229
G1 X41.447 Y160.812 E.02254
G1 X41.019 Y161.322 E.02255
G1 X40.531 Y161.761 E.0222
G1 X39.971 Y162.14 E.0229
G1 X39.373 Y162.432 E.02254
G1 X38.739 Y162.638 E.02255
G1 X38.083 Y162.754 E.02255
G1 X37.417 Y162.777 E.02255
G1 X36.755 Y162.707 E.02255
G1 X36.109 Y162.546 E.02255
G1 X35.491 Y162.297 E.02255
G1 X34.914 Y161.964 E.02255
G1 X34.389 Y161.554 E.02255
G1 X33.927 Y161.074 E.02255
G1 X33.541 Y160.544 E.0222
G1 X33.222 Y159.947 E.0229
G1 X32.995 Y159.322 E.02254
G1 X32.856 Y158.67 E.02255
G1 X32.81 Y158.006 E.02255
G1 X32.856 Y157.341 E.02255
G1 X32.992 Y156.7 E.0222
G1 X33.222 Y156.063 E.0229
G1 X33.535 Y155.475 E.02254
G1 X33.921 Y154.945 E.0222
G1 X34.39 Y154.457 E.0229
G1 X34.914 Y154.047 E.02254
G1 X35.491 Y153.714 E.02255
G1 X36.109 Y153.465 E.02255
G1 X36.755 Y153.304 E.02255
G1 X37.417 Y153.234 E.02255
G1 X38.073 Y153.257 E.0222
G1 X38.739 Y153.373 E.0229
G1 X39.177 Y153.515 E.01557
M204 S1000
G1 X39.268 Y153.675 F10800
; stop printing object shape_001_v11.stl id:0 copy 0
;LAYER_CHANGE
;Z:0.6
;HEIGHT:0.2
;BEFORE_LAYER_CHANGE
G92 E0.0
;0.6


;WIPE_START
G1 F8640
G1 X39.373 Y153.579 E-.04752
G1 X39.971 Y153.871 E-.1538
G1 X40.515 Y154.237 E-.15144
G1 X41.019 Y154.689 E-.1562
G1 X41.447 Y155.199 E-.15375
G1 X41.67 Y155.556 E-.09729
;WIPE_END
G1 E-.04 F2100
G1 Z.8 F720
;AFTER_LAYER_CHANGE
;0.6
; printing object shape_001_v11.stl id:0 copy 0
G1 X41.24 Y155.782 F10800
G1 Z.6 F720
G1 E.8 F2100
M204 S800
;TYPE:Perimeter
G1 F1200
G1 X41.525 Y156.326 E.0208
G1 X41.744 Y156.98 E.02334
G1 X41.854 Y157.661 E.02334
G1 X41.854 Y158.35 E.02334
G1 X41.744 Y159.031 E.02334
G1 X41.53 Y159.67 E.0228
G1 X41.206 Y160.294 E.02383
G1 X40.791 Y160.846 E.02338
G1 X40.294 Y161.324 E.02334
G1 X39.726 Y161.716 E.02334
G1 X39.103 Y162.011 E.02334
G1 X38.441 Y162.203 E.02334
G1 X37.757 Y162.286 E.02334
G1 X37.068 Y162.258 E.02334
G1 X36.392 Y162.121 E.02334
G1 X35.747 Y161.876 E.02334
G1 X35.15 Y161.531 E.02334
G1 X34.616 Y161.095 E.02334
G1 X34.159 Y160.579 E.02334
G1 X33.791 Y159.996 E.02334
G1 X33.52 Y159.362 E.02334
G1 X33.355 Y158.693 E.02334
G1 X33.3 Y158.006 E.02334
G1 X33.355 Y157.318 E.02334
G1 X33.52 Y156.649 E.02334
G1 X33.784 Y156.029 E.0228
G1 X34.158 Y155.433 E.02383
G1 X34.616 Y154.916 E.02338
G1 X35.15 Y154.48 E.02334
G1 X35.747 Y154.135 E.02334
G1 X36.392 Y153.891 E.02334
G1 X37.068 Y153.753 E.02334
G1 X37.741 Y153.725 E.0228
G1 X38.44 Y153.808 E.02383
G1 X39.103 Y154 E.02338
G1 X39.726 Y154.295 E.02334
G1 X40.294 Y154.687 E.02334
G1 X40.791 Y155.165 E.02334
G1 X41.212 Y155.729 E.02384
M204 S1000
G1 X40.879 Y155.971 F10800
M204 S800
;TYPE:External perimeter
G1 F1200
G1 X41.15 Y156.486 E.01969
G1 X41.347 Y157.078 E.02111
G1 X41.447 Y157.694 E.02111
G1 X41.447 Y158.317 E.02111
G1 X41.347 Y158.933 E.02111
G1 X41.154 Y159.51 E.0206
G1 X40.86 Y160.077 E.0216
G1 X40.485 Y160.576 E.02113
G1 X40.035 Y161.008 E.02111
G1 X39.522 Y161.362 E.02111
G1 X38.958 Y161.629 E.02111
G1 X38.359 Y161.803 E.02111
G1 X37.74 Y161.878 E.02111
G1 X37.117 Y161.853 E.02111
G1 X36.506 Y161.728 E.02111
G1 X35.923 Y161.507 E.02111
G1 X35.382 Y161.195 E.02111
G1 X34.899 Y160.801 E.02111
G1 X34.486 Y160.334 E.02111
G1 X34.152 Y159.807 E.02111
G1 X33.908 Y159.233 E.02111
G1 X33.759 Y158.627 E.02111
G1 X33.708 Y158.006 E.02111
G1 X33.759 Y157.384 E.02111
G1 X33.908 Y156.778 E.02111
G1 X34.146 Y156.218 E.0206
G1 X34.485 Y155.678 E.0216
G1 X34.899 Y155.21 E.02113
G1 X35.382 Y154.816 E.02111
G1 X35.923 Y154.504 E.02111
G1 X36.506 Y154.283 E.02111
G1 X37.117 Y154.158 E.02111
G1 X37.725 Y154.134 E.0206
G1 X38.359 Y154.208 E.0216
G1 X38.958 Y154.382 E.02113
G1 X39.522 Y154.649 E.02111
G1 X40.035 Y155.003 E.02111
G1 X40.485 Y155.435 E.02111
G1 X40.849 Y155.92 E.02051
M204 S1000
G1 X41.279 Y155.956 F10800
G1 X41.439 Y155.956
M204 S800
;TYPE:Perimeter
G1 F1200
